;FLAVOR:Marlin
;TIME:6325
;Filament used: 4.29368m
;Layer height: 0.2
;MINX:34.75
;MINY:70.432
;MINZ:0.2
;MAXX:185.25
;MAXY:149.568
;MAXZ:2
;Generated with Cura_SteamEngine 5.2.1
M82 ;absolute extrusion mode
; Ender 3 Custom Start G-code
G92 E0 ; Reset Extruder
G28 ; Home all axes
M104 S175 ; Start heating up the nozzle most of the way
M190 S60 ; Start heating the bed, wait until target temperature reached
M109 S200 ; Finish heating the nozzle
G1 Z2.0 F3000 ; Move Z Axis up little to prevent scratching of Heat Bed
G1 X0.1 Y20 Z0.3 F5000.0 ; Move to start position
G1 X0.1 Y200.0 Z0.3 F1500.0 E15 ; Draw the first line
G1 X0.4 Y200.0 Z0.3 F5000.0 ; Move to side a little
G1 X0.4 Y20 Z0.3 F1500.0 E30 ; Draw the second line
G92 E0 ; Reset Extruder
G1 Z2.0 F3000 ; Move Z Axis up little to prevent scratching of Heat Bed
G1 X5 Y20 Z0.3 F5000.0 ; Move over to prevent blob squish
G92 E0
G92 E0
G1 F1500 E-6.5
;LAYER_COUNT:10
;LAYER:0
M107
G0 F6000 X40.162 Y71.971 Z0.2
;TYPE:SKIRT
G1 F1500 E0
G1 F1200 X40.989 Y71.529 E0.03119
G1 X41.851 Y71.159 E0.06239
G1 X42.741 Y70.863 E0.09358
G1 X43.653 Y70.645 E0.12477
G1 X44.58 Y70.504 E0.15596
G1 X45.451 Y70.445 E0.18499
G1 X46.08 Y70.432 E0.20592
G1 X173.701 Y70.433 E4.45061
G1 X174.399 Y70.443 E4.47383
G1 X175.335 Y70.497 E4.50501
G1 X176.263 Y70.629 E4.53619
G1 X177.177 Y70.841 E4.5674
G1 X178.069 Y71.13 E4.59858
G1 X178.934 Y71.493 E4.62978
G1 X179.764 Y71.929 E4.66097
G1 X180.555 Y72.434 E4.69218
G1 X181.299 Y73.005 E4.72337
G1 X181.992 Y73.637 E4.75457
G1 X182.629 Y74.325 E4.78575
G1 X183.204 Y75.066 E4.81695
G1 X183.715 Y75.852 E4.84813
G1 X184.157 Y76.68 E4.87935
G1 X184.526 Y77.542 E4.91053
G1 X184.821 Y78.432 E4.94172
G1 X185.039 Y79.344 E4.97291
G1 X185.179 Y80.272 E5.00412
G1 X185.237 Y81.133 E5.03282
G1 X185.25 Y81.762 E5.05375
G1 X185.249 Y137.968 E6.92317
G1 X185.24 Y138.695 E6.94735
G1 X185.189 Y139.632 E6.97856
G1 X185.057 Y140.56 E7.00974
G1 X184.848 Y141.474 E7.04092
G1 X184.561 Y142.367 E7.07212
G1 X184.199 Y143.233 E7.10334
G1 X183.765 Y144.064 E7.13452
G1 X183.261 Y144.855 E7.16571
G1 X182.692 Y145.6 E7.19689
G1 X182.061 Y146.295 E7.22811
G1 X181.374 Y146.933 E7.2593
G1 X180.635 Y147.51 E7.29048
G1 X179.849 Y148.022 E7.32168
G1 X179.023 Y148.465 E7.35286
G1 X178.161 Y148.837 E7.38408
G1 X177.272 Y149.133 E7.41525
G1 X176.36 Y149.353 E7.44645
G1 X175.433 Y149.494 E7.47764
G1 X174.549 Y149.555 E7.50711
G1 X173.92 Y149.568 E7.52803
G1 X46.315 Y149.567 E11.77219
G1 X45.617 Y149.558 E11.79541
G1 X44.681 Y149.506 E11.82659
G1 X43.752 Y149.374 E11.8578
G1 X42.838 Y149.164 E11.88899
G1 X41.945 Y148.877 E11.92019
G1 X41.08 Y148.514 E11.95139
G1 X40.249 Y148.08 E11.98257
G1 X39.458 Y147.576 E12.01377
G1 X38.713 Y147.006 E12.04497
G1 X38.019 Y146.375 E12.07616
G1 X37.382 Y145.688 E12.10732
G1 X36.805 Y144.948 E12.13853
G1 X36.293 Y144.162 E12.16973
G1 X35.85 Y143.335 E12.20094
G1 X35.479 Y142.474 E12.23212
G1 X35.183 Y141.584 E12.26331
G1 X34.964 Y140.672 E12.29451
G1 X34.823 Y139.745 E12.3257
G1 X34.763 Y138.856 E12.35533
G1 X34.75 Y138.226 E12.37629
G1 X34.751 Y81.957 E14.24781
G1 X34.76 Y81.292 E14.26993
G1 X34.813 Y80.356 E14.30111
G1 X34.945 Y79.427 E14.33232
G1 X35.156 Y78.513 E14.36352
G1 X35.444 Y77.621 E14.39469
G1 X35.807 Y76.756 E14.42589
G1 X36.242 Y75.925 E14.45709
G1 X36.746 Y75.135 E14.48826
G1 X37.316 Y74.39 E14.51946
G1 X37.948 Y73.696 E14.55068
G1 X38.636 Y73.059 E14.58186
G1 X39.376 Y72.483 E14.61305
G1 X40.162 Y71.971 E14.64425
G0 F6000 X40.541 Y72.214
G1 F1200 X41.361 Y71.796 E14.67486
G1 X42.215 Y71.451 E14.7055
G1 X43.095 Y71.181 E14.73611
G1 X43.995 Y70.989 E14.76672
G1 X44.909 Y70.875 E14.79736
G1 X45.462 Y70.845 E14.81578
G1 X46.08 Y70.832 E14.83633
G1 X173.695 Y70.833 E19.08083
G1 X174.393 Y70.843 E19.10404
G1 X175.312 Y70.896 E19.13466
G1 X176.223 Y71.029 E19.16528
G1 X177.119 Y71.24 E19.1959
G1 X177.993 Y71.528 E19.22651
G1 X178.84 Y71.891 E19.25716
G1 X179.651 Y72.326 E19.28776
G1 X180.421 Y72.83 E19.31837
G1 X181.145 Y73.399 E19.349
G1 X181.817 Y74.029 E19.37964
G1 X182.432 Y74.714 E19.41026
G1 X182.985 Y75.45 E19.44087
G1 X183.472 Y76.231 E19.47149
G1 X183.889 Y77.052 E19.50211
G1 X184.234 Y77.906 E19.53275
G1 X184.503 Y78.786 E19.56335
G1 X184.695 Y79.687 E19.59399
G1 X184.808 Y80.6 E19.62459
G1 X184.837 Y81.144 E19.64271
G1 X184.85 Y81.762 E19.66327
G1 X184.849 Y137.963 E21.53252
G1 X184.84 Y138.69 E21.55671
G1 X184.789 Y139.609 E21.58732
G1 X184.658 Y140.521 E21.61796
G1 X184.448 Y141.417 E21.64857
G1 X184.162 Y142.292 E21.67919
G1 X183.801 Y143.139 E21.70981
G1 X183.367 Y143.951 E21.74044
G1 X182.865 Y144.723 E21.77106
G1 X182.297 Y145.448 E21.8017
G1 X181.669 Y146.121 E21.83231
G1 X180.985 Y146.737 E21.86293
G1 X180.25 Y147.291 E21.89354
G1 X179.47 Y147.78 E21.92416
G1 X178.65 Y148.199 E21.95479
G1 X177.797 Y148.545 E21.9854
G1 X176.917 Y148.816 E22.01603
G1 X176.017 Y149.009 E22.04664
G1 X175.103 Y149.124 E22.07728
G1 X174.538 Y149.155 E22.0961
G1 X173.92 Y149.168 E22.11666
G1 X46.32 Y149.167 E26.36066
G1 X45.622 Y149.158 E26.38387
G1 X44.703 Y149.106 E26.41449
G1 X43.792 Y148.975 E26.4451
G1 X42.896 Y148.765 E26.47571
G1 X42.021 Y148.478 E26.50634
G1 X41.174 Y148.116 E26.53697
G1 X40.362 Y147.682 E26.5676
G1 X39.591 Y147.18 E26.5982
G1 X38.866 Y146.612 E26.62883
G1 X38.193 Y145.983 E26.65947
G1 X37.578 Y145.299 E26.69006
G1 X37.024 Y144.564 E26.72067
G1 X36.536 Y143.783 E26.7513
G1 X36.117 Y142.963 E26.78193
G1 X35.771 Y142.11 E26.81255
G1 X35.501 Y141.23 E26.84316
G1 X35.308 Y140.329 E26.87381
G1 X35.194 Y139.416 E26.90441
G1 X35.163 Y138.845 E26.92343
G1 X35.15 Y138.226 E26.94403
G1 X35.151 Y81.963 E28.81534
G1 X35.16 Y81.298 E28.83746
G1 X35.212 Y80.378 E28.86811
G1 X35.344 Y79.467 E28.89873
G1 X35.555 Y78.571 E28.92934
G1 X35.842 Y77.696 E28.95997
G1 X36.205 Y76.85 E28.99059
G1 X36.639 Y76.038 E29.02121
G1 X37.142 Y75.267 E29.05183
G1 X37.711 Y74.543 E29.08246
G1 X38.339 Y73.871 E29.11305
G1 X39.024 Y73.255 E29.14369
G1 X39.76 Y72.702 E29.17431
G1 X40.541 Y72.214 E29.20494
G0 F6000 X40.919 Y72.463
G1 F1200 X41.732 Y72.07 E29.23497
G1 X42.577 Y71.75 E29.26502
G1 X43.446 Y71.507 E29.29504
G1 X44.334 Y71.341 E29.32508
G1 X45.473 Y71.245 E29.3631
G1 X46.08 Y71.232 E29.38329
G1 X173.689 Y71.233 E33.62759
G1 X174.387 Y71.243 E33.6508
G1 X175.289 Y71.296 E33.68086
G1 X176.182 Y71.428 E33.71088
G1 X177.06 Y71.639 E33.74092
G1 X177.916 Y71.927 E33.77095
G1 X178.743 Y72.289 E33.80098
G1 X179.535 Y72.724 E33.83103
G1 X180.286 Y73.226 E33.86108
G1 X180.989 Y73.793 E33.89112
G1 X181.639 Y74.42 E33.92116
G1 X182.231 Y75.102 E33.95119
G1 X182.761 Y75.833 E33.98122
G1 X183.223 Y76.609 E34.01126
G1 X183.616 Y77.422 E34.0413
G1 X183.934 Y78.267 E34.07133
G1 X184.177 Y79.137 E34.10137
G1 X184.342 Y80.025 E34.13141
G1 X184.437 Y81.155 E34.16913
G1 X184.45 Y81.762 E34.18932
G1 X184.449 Y137.958 E36.05841
G1 X184.44 Y138.685 E36.08259
G1 X184.389 Y139.587 E36.11264
G1 X184.258 Y140.481 E36.14269
G1 X184.049 Y141.359 E36.17271
G1 X183.763 Y142.216 E36.20276
G1 X183.402 Y143.044 E36.2328
G1 X182.97 Y143.836 E36.26281
G1 X182.469 Y144.588 E36.29286
G1 X181.903 Y145.292 E36.3229
G1 X181.278 Y145.943 E36.35292
G1 X180.597 Y146.537 E36.38298
G1 X179.866 Y147.068 E36.41303
G1 X179.092 Y147.532 E36.44304
G1 X178.279 Y147.926 E36.47309
G1 X177.435 Y148.246 E36.50311
G1 X176.565 Y148.491 E36.53317
G1 X175.678 Y148.657 E36.56319
G1 X174.527 Y148.755 E36.60161
G1 X173.92 Y148.768 E36.6218
G1 X46.325 Y148.767 E40.86563
G1 X45.627 Y148.758 E40.88885
G1 X44.726 Y148.707 E40.91886
G1 X43.832 Y148.575 E40.94892
G1 X42.954 Y148.366 E40.97894
G1 X42.097 Y148.079 E41.009
G1 X41.27 Y147.718 E41.03901
G1 X40.477 Y147.285 E41.06906
G1 X39.726 Y146.784 E41.09909
G1 X39.022 Y146.218 E41.12913
G1 X38.371 Y145.592 E41.15917
G1 X37.778 Y144.911 E41.1892
G1 X37.248 Y144.18 E41.21923
G1 X36.784 Y143.405 E41.24928
G1 X36.39 Y142.592 E41.27933
G1 X36.07 Y141.748 E41.30935
G1 X35.826 Y140.878 E41.3394
G1 X35.66 Y139.99 E41.36945
G1 X35.563 Y138.835 E41.408
G1 X35.55 Y138.226 E41.42826
G1 X35.551 Y81.968 E43.29941
G1 X35.56 Y81.303 E43.32153
G1 X35.612 Y80.401 E43.35158
G1 X35.744 Y79.508 E43.3816
G1 X35.954 Y78.63 E43.41163
G1 X36.241 Y77.773 E43.44169
G1 X36.603 Y76.946 E43.47171
G1 X37.036 Y76.154 E43.50173
G1 X37.538 Y75.403 E43.53178
G1 X38.105 Y74.699 E43.56184
G1 X38.731 Y74.049 E43.59186
G1 X39.412 Y73.456 E43.62189
G1 X40.144 Y72.926 E43.65195
G1 X40.919 Y72.463 E43.68198
G1 F1500 E37.18198
;MESH:LeftPanel.stl
G0 F6000 X83.302 Y104.646
G0 X85.609 Y107.229
;TYPE:WALL-INNER
G1 F1500 E43.68198
G1 F1200 X85.116 Y107.192 E43.69842
G1 X84.726 Y107.072 E43.71199
G1 X84.212 Y106.804 E43.73127
G1 X83.71 Y106.247 E43.75621
G1 X83.429 Y105.517 E43.78223
G1 X83.424 Y104.977 E43.80019
G1 X83.437 Y104.849 E43.80447
G1 X83.573 Y104.319 E43.82267
G1 X83.885 Y103.764 E43.84384
G1 X84.462 Y103.28 E43.86889
G1 X85.021 Y103.085 E43.88858
G1 X85.512 Y103.011 E43.9051
G1 X86.045 Y103.092 E43.92303
G1 X86.565 Y103.278 E43.9414
G1 X87 Y103.637 E43.96016
G1 X87.318 Y104.039 E43.97721
G1 X87.491 Y104.406 E43.9907
G1 X87.596 Y104.816 E44.00478
G1 X87.611 Y105.337 E44.02211
G1 X87.503 Y105.822 E44.03864
G1 X87.323 Y106.206 E44.05275
G1 X87.077 Y106.536 E44.06643
G1 X86.584 Y106.969 E44.08826
G1 X86.026 Y107.165 E44.10793
G1 X85.609 Y107.229 E44.12196
G0 F6000 X86.377 Y106.618
;TYPE:WALL-OUTER
G1 F1200 X85.947 Y106.772 E44.13715
G1 X85.607 Y106.825 E44.1486
G1 X85.192 Y106.796 E44.16243
G1 X84.878 Y106.702 E44.17334
G1 X84.46 Y106.483 E44.18903
G1 X84.06 Y106.042 E44.20883
G1 X83.825 Y105.422 E44.23089
G1 X83.824 Y104.977 E44.24569
G1 X83.828 Y104.934 E44.24712
G1 X83.941 Y104.487 E44.26246
G1 X84.201 Y104.023 E44.28015
G1 X84.668 Y103.631 E44.30043
G1 X85.093 Y103.479 E44.31544
G1 X85.497 Y103.417 E44.32904
G1 X85.922 Y103.474 E44.3433
G1 X86.365 Y103.631 E44.35893
G1 X86.718 Y103.921 E44.37412
G1 X86.966 Y104.238 E44.38751
G1 X87.117 Y104.548 E44.39898
G1 X87.2 Y104.872 E44.4101
G1 X87.21 Y105.284 E44.42381
G1 X87.127 Y105.672 E44.43701
G1 X86.968 Y106.013 E44.44952
G1 X86.778 Y106.27 E44.46015
G1 X86.377 Y106.618 E44.47781
G1 F1500 E37.97781
G0 F6000 X86.571 Y106.844
G0 X86.147 Y107.318
G0 X85.546 Y120.836
G0 X85.112 Y125.188
;TYPE:WALL-INNER
G1 F1500 E44.47781
G1 F1200 X84.71 Y125.066 E44.49178
G1 X84.213 Y124.799 E44.51055
G1 X83.71 Y124.248 E44.53536
G1 X83.425 Y123.507 E44.56177
G1 X83.424 Y122.977 E44.5794
G1 X83.434 Y122.863 E44.5832
G1 X83.566 Y122.334 E44.60134
G1 X83.893 Y121.752 E44.62354
G1 X84.465 Y121.283 E44.64814
G1 X84.978 Y121.096 E44.6663
G1 X85.509 Y121.01 E44.6842
G1 X86.027 Y121.088 E44.70162
G1 X86.556 Y121.274 E44.72027
G1 X87.005 Y121.642 E44.73958
G1 X87.31 Y122.032 E44.75604
G1 X87.495 Y122.408 E44.76998
G1 X87.597 Y122.806 E44.78365
G1 X87.612 Y123.336 E44.80128
G1 X87.498 Y123.826 E44.81802
G1 X87.329 Y124.196 E44.83154
G1 X87.069 Y124.549 E44.84613
G1 X86.58 Y124.968 E44.86754
G1 X86.025 Y125.166 E44.88714
G1 X85.612 Y125.225 E44.90102
G1 X85.112 Y125.188 E44.91769
G0 F6000 X85.928 Y124.778
;TYPE:WALL-OUTER
G1 F1200 X85.598 Y124.825 E44.92878
G1 X85.186 Y124.795 E44.94252
G1 X84.882 Y124.703 E44.95308
G1 X84.472 Y124.488 E44.96848
G1 X84.062 Y124.044 E44.98858
G1 X83.825 Y123.434 E45.01035
G1 X83.824 Y122.977 E45.02555
G1 X83.827 Y122.939 E45.02682
G1 X83.942 Y122.484 E45.04243
G1 X84.201 Y122.023 E45.06001
G1 X84.657 Y121.64 E45.07982
G1 X85.105 Y121.476 E45.09569
G1 X85.513 Y121.414 E45.10941
G1 X85.952 Y121.482 E45.12419
G1 X86.358 Y121.63 E45.13856
G1 X86.719 Y121.922 E45.154
G1 X86.958 Y122.226 E45.16687
G1 X87.11 Y122.532 E45.17823
G1 X87.201 Y122.887 E45.19042
G1 X87.206 Y123.317 E45.20472
G1 X87.113 Y123.714 E45.21828
G1 X86.983 Y123.989 E45.2284
G1 X86.776 Y124.272 E45.24006
G1 X86.376 Y124.617 E45.25763
G1 X85.928 Y124.778 E45.27347
G1 F1500 E38.77347
G0 F6000 X86.028 Y125.06
G0 X87.139 Y124.728
G0 X96.998 Y123.121
G0 X98.77 Y123.499
;TYPE:WALL-INNER
G1 F1500 E45.27347
G1 F1200 X97.936 Y123.496 E45.3012
G1 X97.466 Y123.336 E45.31772
G1 X97.057 Y122.923 E45.33705
G1 X96.89 Y122.548 E45.3507
G1 X96.864 Y122.405 E45.35554
G1 X96.863 Y115.086 E45.59897
G1 X96.913 Y114.838 E45.60738
G1 X97.217 Y114.313 E45.62756
G1 F1188.1 X97.843 Y113.959 E45.65172
G1 F1162.2 X98.743 Y113.957 E45.68263
G1 F1148.3 X98.913 Y114.006 E45.68878
G1 F1118.9 X99.3 Y114.208 E45.70435
G1 F1137.4 X99.474 Y114.378 E45.71288
G1 F1191.1 X99.706 Y114.722 E45.72679
G1 F1197 X99.794 Y115.158 E45.74162
G1 F1200 X99.796 Y122.413 E45.98292
G1 X99.751 Y122.594 E45.98912
G1 X99.55 Y123.006 E46.00437
G1 X99.201 Y123.317 E46.01992
G1 X98.77 Y123.499 E46.03548
G0 F6000 X98.686 Y123.1
;TYPE:WALL-OUTER
G1 F1200 X97.992 Y123.091 E46.05856
G1 X97.678 Y122.981 E46.06963
G1 X97.386 Y122.687 E46.08341
G1 X97.263 Y122.395 E46.09395
G1 X97.263 Y115.086 E46.33705
G1 X97.272 Y115.024 E46.33913
G1 X97.508 Y114.608 E46.35504
G1 X97.962 Y114.359 E46.37226
G1 X98.709 Y114.362 E46.39711
G1 X99.141 Y114.6 E46.41351
G1 X99.327 Y114.885 E46.42483
G1 X99.396 Y115.201 E46.43559
G1 X99.397 Y122.409 E46.67533
G1 X99.222 Y122.767 E46.68858
G1 X98.968 Y122.984 E46.69969
G1 X98.686 Y123.1 E46.70984
G0 F6000 X98.544 Y123.602
G0 X99.942 Y122.518
G0 X99.602 Y114.276
G0 X99.372 Y113.996
G0 X101.405 Y114.182
G0 X100.992 Y115.086
G0 X101.303 Y123.107
G0 X101.848 Y123.365
;TYPE:WALL-INNER
G1 F1200 X101.688 Y123.265 E46.71611
G1 X101.343 Y122.92 E46.73234
G1 X101.154 Y122.485 E46.74811
G1 X101.155 Y115.024 E46.99627
G1 X101.234 Y114.782 E47.00473
G1 F1148.3 X101.459 Y114.4 E47.02014
G1 F1016.9 X101.822 Y113.998 E47.0414
G1 F1057.3 X101.435 Y113.992 E47.05601
G1 F1200 X100.899 Y114.033 E47.07389
G1 X100.384 Y114.006 E47.09104
G1 F1194 X99.81 Y113.898 E47.11057
G1 F1148.3 X99.44 Y113.796 E47.12391
G1 F1118.9 X98.965 Y113.572 E47.14264
G1 F1162.2 X98.504 Y113.266 E47.16164
G1 F1200 X98.123 Y112.95 E47.17811
G1 X97.839 Y112.654 E47.19175
G1 X97.545 Y112.269 E47.20786
G1 X97.282 Y111.823 E47.22508
G1 X97.088 Y111.361 E47.24175
G1 X96.953 Y110.889 E47.25808
G1 X96.866 Y110.299 E47.27791
G1 X96.863 Y105.539 E47.43623
G1 X96.91 Y105.303 E47.44423
G1 X97.052 Y104.977 E47.45606
G1 X97.434 Y104.595 E47.47403
G1 X97.772 Y104.441 E47.48638
G1 X97.972 Y104.394 E47.49322
G1 X98.716 Y104.404 E47.51796
G1 X99.116 Y104.535 E47.53196
G1 X99.459 Y104.784 E47.54606
G1 X99.751 Y105.276 E47.56509
G1 X99.793 Y105.442 E47.57078
G1 X99.798 Y110.055 E47.72421
G1 X99.878 Y110.333 E47.73384
G1 X100.066 Y110.634 E47.74564
G1 X100.303 Y110.828 E47.75583
G1 X100.515 Y110.934 E47.76371
G1 X100.828 Y111.009 E47.77441
G1 X101.152 Y110.972 E47.78526
G1 X101.379 Y110.89 E47.79329
G1 X101.574 Y110.764 E47.80101
G1 X101.748 Y110.59 E47.80919
G1 X101.912 Y110.331 E47.81939
G1 X101.991 Y110.057 E47.82888
G1 X101.997 Y105.451 E47.98207
G1 X102.094 Y105.075 E47.99499
G1 X102.457 Y104.608 E48.01466
G1 X102.874 Y104.394 E48.03025
G1 X103.084 Y104.341 E48.03745
G1 X107.287 Y104.341 E48.17725
G1 X107.5 Y104.396 E48.18456
G1 X107.975 Y104.671 E48.20282
G1 X108.2 Y104.956 E48.21489
G1 X108.374 Y105.348 E48.22916
G1 X108.371 Y106.197 E48.2574
G1 X108.215 Y106.664 E48.27377
G1 X107.855 Y107.027 E48.29078
G1 X107.675 Y107.141 E48.29786
G1 X107.291 Y107.27 E48.31134
G1 X104.853 Y107.275 E48.39243
G1 X104.854 Y110.034 E48.48419
G1 X104.818 Y110.575 E48.50222
G1 X104.721 Y111.06 E48.51867
G1 X104.524 Y111.626 E48.53861
G1 X104.309 Y112.055 E48.55457
G1 X104.01 Y112.498 E48.57234
G1 X103.683 Y112.864 E48.58867
G1 X103.28 Y113.214 E48.60642
G1 X102.913 Y113.465 E48.62121
G1 X102.826 Y113.514 E48.62453
G1 F1064.3 X102.309 Y113.86 E48.64786
G1 F950.5 X102.505 Y113.91 E48.65635
G1 F1057.3 X103.099 Y113.972 E48.6789
G1 F1200 X103.484 Y114.139 E48.69286
G1 X103.818 Y114.429 E48.70757
G1 X104.037 Y114.849 E48.72332
G1 X104.088 Y115.022 E48.72932
G1 X104.087 Y122.501 E48.97807
G1 X103.842 Y123.005 E48.99671
G1 X103.494 Y123.316 E49.01224
G1 X103.055 Y123.503 E49.02811
G1 X102.226 Y123.495 E49.05568
G1 X101.848 Y123.365 E49.06898
G0 F6000 X102.834 Y123.602
G0 X102.978 Y123.103
;TYPE:WALL-OUTER
G1 F1200 X102.292 Y123.093 E49.09179
G1 X101.975 Y122.987 E49.10291
