;FLAVOR:Marlin
;TIME:6176
;Filament used: 4.3901m
;Layer height: 0.2
;MINX:34.75
;MINY:70.422
;MINZ:0.2
;MAXX:185.25
;MAXY:149.578
;MAXZ:2
;Generated with Cura_SteamEngine 5.2.1
M82 ;absolute extrusion mode
; Ender 3 Custom Start G-code
G92 E0 ; Reset Extruder
G28 ; Home all axes
M104 S175 ; Start heating up the nozzle most of the way
M190 S60 ; Start heating the bed, wait until target temperature reached
M109 S200 ; Finish heating the nozzle
G1 Z2.0 F3000 ; Move Z Axis up little to prevent scratching of Heat Bed
G1 X0.1 Y20 Z0.3 F5000.0 ; Move to start position
G1 X0.1 Y200.0 Z0.3 F1500.0 E15 ; Draw the first line
G1 X0.4 Y200.0 Z0.3 F5000.0 ; Move to side a little
G1 X0.4 Y20 Z0.3 F1500.0 E30 ; Draw the second line
G92 E0 ; Reset Extruder
G1 Z2.0 F3000 ; Move Z Axis up little to prevent scratching of Heat Bed
G1 X5 Y20 Z0.3 F5000.0 ; Move over to prevent blob squish
G92 E0
G92 E0
G1 F1500 E-6.5
;LAYER_COUNT:10
;LAYER:0
M107
G0 F6000 X40.162 Y71.961 Z0.2
;TYPE:SKIRT
G1 F1500 E0
G1 F1200 X40.989 Y71.519 E0.03119
G1 X41.851 Y71.149 E0.06239
G1 X42.741 Y70.853 E0.09358
G1 X43.653 Y70.635 E0.12477
G1 X44.58 Y70.494 E0.15596
G1 X45.451 Y70.435 E0.18499
G1 X46.08 Y70.422 E0.20592
G1 X173.701 Y70.423 E4.45061
G1 X174.399 Y70.433 E4.47383
G1 X175.335 Y70.487 E4.50501
G1 X176.263 Y70.619 E4.53619
G1 X177.177 Y70.831 E4.5674
G1 X178.069 Y71.12 E4.59858
G1 X178.934 Y71.483 E4.62978
G1 X179.764 Y71.919 E4.66097
G1 X180.555 Y72.424 E4.69218
G1 X181.299 Y72.995 E4.72337
G1 X181.992 Y73.627 E4.75457
G1 X182.629 Y74.315 E4.78575
G1 X183.204 Y75.056 E4.81695
G1 X183.715 Y75.842 E4.84813
G1 X184.157 Y76.67 E4.87935
G1 X184.526 Y77.532 E4.91053
G1 X184.821 Y78.422 E4.94172
G1 X185.039 Y79.334 E4.97291
G1 X185.179 Y80.262 E5.00412
G1 X185.237 Y81.123 E5.03282
G1 X185.25 Y81.752 E5.05375
G1 X185.249 Y137.978 E6.92383
G1 X185.24 Y138.705 E6.94801
G1 X185.189 Y139.642 E6.97922
G1 X185.057 Y140.57 E7.0104
G1 X184.848 Y141.484 E7.04159
G1 X184.561 Y142.377 E7.07278
G1 X184.199 Y143.243 E7.104
G1 X183.765 Y144.074 E7.13518
G1 X183.261 Y144.865 E7.16638
G1 X182.692 Y145.61 E7.19756
G1 X182.061 Y146.305 E7.22878
G1 X181.374 Y146.943 E7.25996
G1 X180.635 Y147.52 E7.29115
G1 X179.849 Y148.032 E7.32235
G1 X179.023 Y148.475 E7.35352
G1 X178.161 Y148.847 E7.38475
G1 X177.272 Y149.143 E7.41591
G1 X176.36 Y149.363 E7.44711
G1 X175.433 Y149.504 E7.4783
G1 X174.549 Y149.565 E7.50777
G1 X173.92 Y149.578 E7.5287
G1 X46.315 Y149.577 E11.77286
G1 X45.617 Y149.568 E11.79608
G1 X44.681 Y149.516 E11.82725
G1 X43.752 Y149.384 E11.85846
G1 X42.838 Y149.174 E11.88966
G1 X41.945 Y148.887 E11.92085
G1 X41.08 Y148.524 E11.95205
G1 X40.249 Y148.09 E11.98324
G1 X39.458 Y147.586 E12.01443
G1 X38.713 Y147.016 E12.04563
G1 X38.019 Y146.385 E12.07683
G1 X37.382 Y145.698 E12.10799
G1 X36.805 Y144.958 E12.1392
G1 X36.293 Y144.172 E12.1704
G1 X35.85 Y143.345 E12.2016
G1 X35.479 Y142.484 E12.23278
G1 X35.183 Y141.594 E12.26398
G1 X34.964 Y140.682 E12.29518
G1 X34.823 Y139.755 E12.32636
G1 X34.763 Y138.866 E12.356
G1 X34.75 Y138.236 E12.37696
G1 X34.751 Y81.947 E14.24914
G1 X34.76 Y81.282 E14.27126
G1 X34.813 Y80.346 E14.30244
G1 X34.945 Y79.417 E14.33365
G1 X35.156 Y78.503 E14.36485
G1 X35.444 Y77.611 E14.39602
G1 X35.807 Y76.746 E14.42722
G1 X36.242 Y75.915 E14.45842
G1 X36.746 Y75.125 E14.48959
G1 X37.316 Y74.38 E14.52079
G1 X37.948 Y73.686 E14.55201
G1 X38.636 Y73.049 E14.58319
G1 X39.376 Y72.473 E14.61438
G1 X40.162 Y71.961 E14.64558
G0 F6000 X40.541 Y72.204
G1 F1200 X41.361 Y71.786 E14.67619
G1 X42.215 Y71.441 E14.70683
G1 X43.095 Y71.171 E14.73744
G1 X43.995 Y70.979 E14.76805
G1 X44.909 Y70.865 E14.79869
G1 X45.462 Y70.835 E14.81711
G1 X46.08 Y70.822 E14.83766
G1 X173.695 Y70.823 E19.08216
G1 X174.393 Y70.833 E19.10537
G1 X175.312 Y70.886 E19.13599
G1 X176.223 Y71.019 E19.16661
G1 X177.119 Y71.23 E19.19723
G1 X177.993 Y71.518 E19.22784
G1 X178.84 Y71.881 E19.25849
G1 X179.651 Y72.316 E19.28909
G1 X180.421 Y72.82 E19.3197
G1 X181.145 Y73.389 E19.35033
G1 X181.817 Y74.019 E19.38097
G1 X182.432 Y74.704 E19.41159
G1 X182.985 Y75.44 E19.44221
G1 X183.472 Y76.221 E19.47282
G1 X183.889 Y77.042 E19.50344
G1 X184.234 Y77.896 E19.53408
G1 X184.503 Y78.776 E19.56468
G1 X184.695 Y79.677 E19.59533
G1 X184.808 Y80.59 E19.62592
G1 X184.837 Y81.134 E19.64404
G1 X184.85 Y81.752 E19.6646
G1 X184.849 Y137.973 E21.53452
G1 X184.84 Y138.7 E21.5587
G1 X184.789 Y139.619 E21.58931
G1 X184.658 Y140.531 E21.61996
G1 X184.448 Y141.427 E21.65057
G1 X184.162 Y142.302 E21.68119
G1 X183.801 Y143.149 E21.71181
G1 X183.367 Y143.961 E21.74243
G1 X182.865 Y144.733 E21.77306
G1 X182.297 Y145.458 E21.80369
G1 X181.669 Y146.131 E21.83431
G1 X180.985 Y146.747 E21.86492
G1 X180.25 Y147.301 E21.89554
G1 X179.47 Y147.79 E21.92616
G1 X178.65 Y148.209 E21.95678
G1 X177.797 Y148.555 E21.9874
G1 X176.917 Y148.826 E22.01803
G1 X176.017 Y149.019 E22.04864
G1 X175.103 Y149.134 E22.07928
G1 X174.538 Y149.165 E22.0981
G1 X173.92 Y149.178 E22.11866
G1 X46.32 Y149.177 E26.36265
G1 X45.622 Y149.168 E26.38587
G1 X44.703 Y149.116 E26.41649
G1 X43.792 Y148.985 E26.4471
G1 X42.896 Y148.775 E26.47771
G1 X42.021 Y148.488 E26.50833
G1 X41.174 Y148.126 E26.53897
G1 X40.362 Y147.692 E26.56959
G1 X39.591 Y147.19 E26.60019
G1 X38.866 Y146.622 E26.63083
G1 X38.193 Y145.993 E26.66146
G1 X37.578 Y145.309 E26.69206
G1 X37.024 Y144.574 E26.72267
G1 X36.536 Y143.793 E26.7533
G1 X36.117 Y142.973 E26.78393
G1 X35.771 Y142.12 E26.81454
G1 X35.501 Y141.24 E26.84516
G1 X35.308 Y140.339 E26.87581
G1 X35.194 Y139.426 E26.90641
G1 X35.163 Y138.855 E26.92543
G1 X35.15 Y138.236 E26.94602
G1 X35.151 Y81.953 E28.818
G1 X35.16 Y81.288 E28.84012
G1 X35.212 Y80.368 E28.87077
G1 X35.344 Y79.457 E28.90139
G1 X35.555 Y78.561 E28.932
G1 X35.842 Y77.686 E28.96263
G1 X36.205 Y76.84 E28.99325
G1 X36.639 Y76.028 E29.02387
G1 X37.142 Y75.257 E29.05449
G1 X37.711 Y74.533 E29.08512
G1 X38.339 Y73.861 E29.11571
G1 X39.024 Y73.245 E29.14635
G1 X39.76 Y72.692 E29.17697
G1 X40.541 Y72.204 E29.2076
G0 F6000 X40.919 Y72.453
G1 F1200 X41.732 Y72.06 E29.23763
G1 X42.577 Y71.74 E29.26769
G1 X43.446 Y71.497 E29.2977
G1 X44.334 Y71.331 E29.32774
G1 X45.473 Y71.235 E29.36576
G1 X46.08 Y71.222 E29.38596
G1 X173.689 Y71.223 E33.63025
G1 X174.387 Y71.233 E33.65347
G1 X175.289 Y71.286 E33.68352
G1 X176.182 Y71.418 E33.71354
G1 X177.06 Y71.629 E33.74358
G1 X177.916 Y71.917 E33.77361
G1 X178.743 Y72.279 E33.80364
G1 X179.535 Y72.714 E33.83369
G1 X180.286 Y73.216 E33.86374
G1 X180.989 Y73.783 E33.89378
G1 X181.639 Y74.41 E33.92382
G1 X182.231 Y75.092 E33.95385
G1 X182.761 Y75.823 E33.98388
G1 X183.223 Y76.599 E34.01392
G1 X183.616 Y77.412 E34.04396
G1 X183.934 Y78.257 E34.07399
G1 X184.177 Y79.127 E34.10403
G1 X184.342 Y80.015 E34.13407
G1 X184.437 Y81.145 E34.17179
G1 X184.45 Y81.752 E34.19198
G1 X184.449 Y137.968 E36.06173
G1 X184.44 Y138.695 E36.08591
G1 X184.389 Y139.597 E36.11596
G1 X184.258 Y140.491 E36.14601
G1 X184.049 Y141.369 E36.17603
G1 X183.763 Y142.226 E36.20608
G1 X183.402 Y143.054 E36.23613
G1 X182.97 Y143.846 E36.26613
G1 X182.469 Y144.598 E36.29619
G1 X181.903 Y145.302 E36.32623
G1 X181.278 Y145.953 E36.35625
G1 X180.597 Y146.547 E36.3863
G1 X179.866 Y147.078 E36.41635
G1 X179.092 Y147.542 E36.44637
G1 X178.279 Y147.936 E36.47642
G1 X177.435 Y148.256 E36.50644
G1 X176.565 Y148.501 E36.5365
G1 X175.678 Y148.667 E36.56651
G1 X174.527 Y148.765 E36.60493
G1 X173.92 Y148.778 E36.62513
G1 X46.325 Y148.777 E40.86895
G1 X45.627 Y148.768 E40.89217
G1 X44.726 Y148.717 E40.92219
G1 X43.832 Y148.585 E40.95224
G1 X42.954 Y148.376 E40.98226
G1 X42.097 Y148.089 E41.01232
G1 X41.27 Y147.728 E41.04233
G1 X40.477 Y147.295 E41.07239
G1 X39.726 Y146.794 E41.10241
G1 X39.022 Y146.228 E41.13246
G1 X38.371 Y145.602 E41.16249
G1 X37.778 Y144.921 E41.19253
G1 X37.248 Y144.19 E41.22256
G1 X36.784 Y143.415 E41.2526
G1 X36.39 Y142.602 E41.28265
G1 X36.07 Y141.758 E41.31267
G1 X35.826 Y140.888 E41.34273
G1 X35.66 Y140 E41.37277
G1 X35.563 Y138.845 E41.41132
G1 X35.55 Y138.236 E41.43158
G1 X35.551 Y81.958 E43.3034
G1 X35.56 Y81.293 E43.32552
G1 X35.612 Y80.391 E43.35557
G1 X35.744 Y79.498 E43.38559
G1 X35.954 Y78.62 E43.41562
G1 X36.241 Y77.763 E43.44568
G1 X36.603 Y76.936 E43.4757
G1 X37.036 Y76.144 E43.50573
G1 X37.538 Y75.393 E43.53577
G1 X38.105 Y74.689 E43.56584
G1 X38.731 Y74.039 E43.59585
G1 X39.412 Y73.446 E43.62588
G1 X40.144 Y72.916 E43.65594
G1 X40.919 Y72.453 E43.68597
G1 F1500 E37.18597
;MESH:RightPanel.stl
G0 F6000 X77.437 Y104.786
G0 X82.436 Y109.887
;TYPE:WALL-INNER
G1 F1500 E43.68597
G1 F1200 X81.885 Y109.966 E43.70448
G1 X81.373 Y109.968 E43.72151
G1 X81.001 Y109.932 E43.73394
G1 X80.577 Y109.85 E43.74831
G1 X80.115 Y109.71 E43.76436
G1 X79.567 Y109.454 E43.78448
G1 X79.06 Y109.12 E43.80467
G1 X78.674 Y108.771 E43.82198
G1 X78.391 Y108.457 E43.83604
G1 X78.164 Y108.147 E43.84882
G1 X77.958 Y107.805 E43.8621
G1 X77.786 Y107.441 E43.87549
G1 X77.65 Y107.062 E43.88888
G1 X77.533 Y106.595 E43.90489
G1 X77.479 Y106.076 E43.92225
G1 X77.479 Y105.7 E43.93475
G1 X77.533 Y105.148 E43.9532
G1 X77.65 Y104.682 E43.96918
G1 X77.786 Y104.304 E43.98254
G1 X77.992 Y103.865 E43.99867
G1 X78.275 Y103.437 E44.01574
G1 X78.6 Y103.04 E44.0328
G1 X79.016 Y102.662 E44.0515
G1 X79.545 Y102.299 E44.07284
G1 X80.021 Y102.079 E44.09028
G1 X80.468 Y101.916 E44.1061
G1 X80.949 Y101.82 E44.12242
G1 X81.333 Y101.779 E44.13526
G1 X81.797 Y101.778 E44.15069
G1 X82.139 Y101.811 E44.16212
G1 X82.661 Y101.912 E44.17981
G1 X83.161 Y102.092 E44.19748
G1 X83.499 Y102.249 E44.20988
G1 X83.896 Y102.487 E44.22527
G1 X84.403 Y102.891 E44.24683
G1 X84.811 Y103.34 E44.26701
G1 X85.151 Y103.853 E44.28748
G1 X85.348 Y104.266 E44.3027
G1 X85.49 Y104.65 E44.31632
G1 X85.62 Y105.166 E44.33402
G1 X85.671 Y105.659 E44.3505
G1 X85.671 Y106.065 E44.364
G1 X85.628 Y106.492 E44.37828
G1 X85.539 Y106.951 E44.39383
G1 X85.375 Y107.413 E44.41013
G1 X85.192 Y107.806 E44.42455
G1 X84.94 Y108.226 E44.44084
G1 X84.473 Y108.775 E44.46482
G1 X84.176 Y109.043 E44.47812
G1 X83.857 Y109.278 E44.4913
G1 X83.439 Y109.531 E44.50755
G1 X82.958 Y109.733 E44.5249
G1 X82.436 Y109.887 E44.543
G0 F6000 X82.367 Y109.493
;TYPE:WALL-OUTER
G1 F1200 X81.847 Y109.568 E44.56048
G1 X81.383 Y109.568 E44.57591
G1 X81.041 Y109.534 E44.58734
G1 X80.674 Y109.462 E44.59978
G1 X80.249 Y109.333 E44.61455
G1 X79.755 Y109.101 E44.63271
G1 X79.29 Y108.792 E44.65128
G1 X78.95 Y108.482 E44.66658
G1 X78.709 Y108.213 E44.67859
G1 X78.493 Y107.92 E44.6907
G1 X78.31 Y107.616 E44.7025
G1 X78.152 Y107.279 E44.71488
G1 X78.033 Y106.946 E44.72664
G1 X77.925 Y106.517 E44.74135
G1 X77.879 Y106.066 E44.75643
G1 X77.879 Y105.7 E44.76861
G1 X77.925 Y105.226 E44.78445
G1 X78.036 Y104.789 E44.79944
G1 X78.152 Y104.466 E44.81086
G1 X78.351 Y104.044 E44.82637
G1 X78.591 Y103.683 E44.84079
G1 X78.89 Y103.316 E44.85654
G1 X79.295 Y102.95 E44.87469
G1 X79.755 Y102.643 E44.89309
G1 X80.143 Y102.461 E44.90734
G1 X80.575 Y102.303 E44.92264
G1 X81.032 Y102.212 E44.93814
G1 X81.374 Y102.177 E44.94957
G1 X81.759 Y102.176 E44.96238
G1 X82.101 Y102.209 E44.97381
G1 X82.569 Y102.302 E44.98968
G1 X82.993 Y102.455 E45.00467
G1 X83.321 Y102.608 E45.01671
G1 X83.713 Y102.846 E45.03196
G1 X84.127 Y103.183 E45.04971
G1 X84.502 Y103.598 E45.06832
G1 X84.798 Y104.041 E45.08604
G1 X84.993 Y104.455 E45.10126
G1 X85.115 Y104.791 E45.11315
G1 X85.225 Y105.23 E45.1282
G1 X85.271 Y105.672 E45.14298
G1 X85.271 Y106.056 E45.15575
G1 X85.238 Y106.398 E45.16718
G1 X85.155 Y106.832 E45.18188
G1 X84.991 Y107.296 E45.19825
G1 X84.842 Y107.612 E45.20987
G1 X84.602 Y108.012 E45.22538
G1 X84.198 Y108.484 E45.24605
G1 X83.915 Y108.74 E45.25874
G1 X83.627 Y108.951 E45.27061
G1 X83.249 Y109.179 E45.28529
G1 X82.824 Y109.356 E45.30061
G1 X82.367 Y109.493 E45.31647
G1 F1500 E38.81647
G0 F6000 X82.443 Y109.986
G0 X83.927 Y109.447
G0 X117.534 Y107.185
G0 X118.794 Y107.89
;TYPE:WALL-INNER
G1 F1500 E45.31647
G1 F1200 X118.332 Y107.684 E45.3333
G1 X118.05 Y107.481 E45.34486
G1 X117.707 Y107.125 E45.3613
G1 X117.45 Y106.664 E45.37885
G1 X117.307 Y106.096 E45.39833
G1 X117.307 Y105.723 E45.41074
G1 X117.317 Y105.609 E45.41455
G1 X117.45 Y105.084 E45.43256
G1 X117.596 Y104.796 E45.4433
G1 X117.898 Y104.402 E45.45981
G1 X118.226 Y104.127 E45.47405
G1 X118.594 Y103.928 E45.48796
G1 X119.084 Y103.79 E45.50489
G1 X119.615 Y103.777 E45.52256
G1 F1203 X120.187 Y103.921 E45.54213
G1 X120.585 Y104.141 E45.55722
G1 F1200 X120.89 Y104.383 E45.57017
G1 X121.198 Y104.782 E45.58693
G1 X121.377 Y105.155 E45.60069
G1 X121.482 Y105.562 E45.61467
G1 X121.493 Y105.999 E45.62921
G1 X121.44 Y106.396 E45.64253
G1 X121.207 Y106.959 E45.6628
G1 X121.078 Y107.154 E45.67057
G1 X120.719 Y107.514 E45.68748
G1 F1203 X120.234 Y107.8 E45.70616
G1 X119.884 Y107.92 E45.71844
G1 X119.373 Y107.975 E45.73549
G1 F1200 X118.794 Y107.89 E45.75496
G0 F6000 X118.596 Y107.912
G0 X119.817 Y107.825
G0 X119.783 Y107.528
;TYPE:WALL-OUTER
G1 F1200 X119.398 Y107.574 E45.76785
G1 X118.906 Y107.502 E45.78439
G1 X118.515 Y107.324 E45.79868
G1 X118.314 Y107.181 E45.80688
G1 X118.039 Y106.894 E45.8201
G1 X117.827 Y106.519 E45.83443
G1 X117.707 Y106.041 E45.85082
G1 X117.707 Y105.723 E45.8614
G1 X117.708 Y105.696 E45.8623
G1 X117.83 Y105.219 E45.87867
G1 X117.956 Y104.976 E45.88778
G1 X118.189 Y104.676 E45.90041
G1 X118.439 Y104.47 E45.91119
G1 X118.766 Y104.295 E45.92352
G1 X119.143 Y104.189 E45.93655
G1 X119.571 Y104.178 E45.95079
G1 X120.048 Y104.298 E45.96715
G1 X120.389 Y104.49 E45.98016
G1 X120.589 Y104.655 E45.98879
G1 X120.865 Y105.012 E46.00379
G1 X121.005 Y105.314 E46.01487
G1 X121.078 Y105.595 E46.02452
G1 X121.091 Y106.047 E46.03956
G1 X121.054 Y106.269 E46.04705
G1 X120.822 Y106.844 E46.06767
G1 X120.473 Y107.194 E46.08411
G1 X120.079 Y107.429 E46.09937
G1 X119.783 Y107.528 E46.10975
G0 F6000 X119.817 Y107.825
G0 X120.624 Y107.381
G0 X121.024 Y106.981
G0 X121.281 Y106.356
G0 X121.322 Y105.589
G0 X121.175 Y105.181
G0 X120.605 Y104.037
G0 X120.499 Y103.64
;TYPE:WALL-INNER
G1 F1203 X120.31 Y103.527 E46.11706
G1 F1206 X120.139 Y103.288 E46.12678
G1 F1200 X120.102 Y103.132 E46.13211
G1 X120.1 Y84.072 E46.76605
G1 X120.146 Y83.84 E46.77392
G1 X120.34 Y83.591 E46.78442
G1 X120.614 Y83.472 E46.79435
G1 X139.7 Y83.472 E47.42916
G1 X140.015 Y83.56 E47.44003
G1 X140.215 Y83.763 E47.44951
G1 X140.3 Y84.072 E47.46017
G1 X140.299 Y103.125 E48.09388
G1 X140.244 Y103.326 E48.10081
G1 X140.139 Y103.482 E48.10706
G1 X139.984 Y103.601 E48.11356
G1 X139.7 Y103.672 E48.1233
G1 X120.7 Y103.672 E48.75524
G1 F1197 X120.499 Y103.64 E48.76203
G0 F6000 X120.57 Y103.224
;TYPE:WALL-OUTER
G1 F1203 X120.5 Y103.092 E48.76698
G1 F1200 X120.5 Y84.072 E49.39959
G1 X120.58 Y83.911 E49.40557
G1 X120.665 Y83.874 E49.40865
G1 X139.7 Y83.872 E50.04176
G1 X139.805 Y83.901 E50.04538
G1 X139.872 Y83.969 E50.04856
G1 X139.9 Y84.072 E50.05211
G1 X139.9 Y103.09 E50.68465
G1 X139.847 Y103.209 E50.68898
G1 X139.737 Y103.272 E50.6932
G1 X120.652 Y103.272 E51.32797
G1 F1203 X120.57 Y103.224 E51.33112
G1 F1500 E44.83112
G0 F6000 X120.605 Y104.037
G0 X120.396 Y103.816
G0 X140.154 Y103.708
G0 X141.927 Y103.234
G0 X142.261 Y103.482
;TYPE:WALL-INNER
G1 F1500 E51.33112
G1 F1200 X142.156 Y103.326 E51.33738
G1 X142.101 Y103.125 E51.34431
G1 X142.1 Y84.072 E51.97801
G1 X142.185 Y83.763 E51.98867
G1 X142.385 Y83.56 E51.99815
G1 X142.617 Y83.472 E52.0064
G1 X161.7 Y83.472 E52.64111
G1 X162.061 Y83.591 E52.65375
G1 X162.254 Y83.841 E52.66425
G1 X162.3 Y84.072 E52.67209
G1 X162.3 Y103.072 E53.30403
G1 F1203 X162.205 Y103.395 E53.3152
G1 X161.943 Y103.638 E53.32705
G1 X161.7 Y103.672 E53.33519
G1 F1200 X142.647 Y103.67 E53.9689
G1 X142.416 Y103.601 E53.97692
G1 X142.261 Y103.482 E53.98342
G0 F6000 X142.627 Y103.272
;TYPE:WALL-OUTER
G1 F1200 X142.5 Y103.138 E53.98956
G1 X142.5 Y84.072 E54.6237
G1 X142.528 Y83.969 E54.62725
G1 X142.665 Y83.874 E54.63279
G1 X161.7 Y83.872 E55.2659
G1 X161.821 Y83.911 E55.27013
G1 X161.9 Y84.015 E55.27447
G1 X161.9 Y103.072 E55.90831
G1 X161.869 Y103.18 E55.91205
G1 X161.7 Y103.272 E55.91845
G1 X142.627 Y103.272 E56.55282
G0 F6000 X142.627 Y103.572
G0 X161.845 Y103.846
