;FLAVOR:Marlin
;TIME:10885
;Filament used: 7.80666m
;Layer height: 0.2
;MINX:34.75
;MINY:49.965
;MINZ:0.2
;MAXX:185.25
;MAXY:170.035
;MAXZ:2
;Generated with Cura_SteamEngine 5.2.1
M82 ;absolute extrusion mode
; Ender 3 Custom Start G-code
G92 E0 ; Reset Extruder
G28 ; Home all axes
M104 S175 ; Start heating up the nozzle most of the way
M190 S60 ; Start heating the bed, wait until target temperature reached
M109 S200 ; Finish heating the nozzle
G1 Z2.0 F3000 ; Move Z Axis up little to prevent scratching of Heat Bed
G1 X0.1 Y20 Z0.3 F5000.0 ; Move to start position
G1 X0.1 Y200.0 Z0.3 F1500.0 E15 ; Draw the first line
G1 X0.4 Y200.0 Z0.3 F5000.0 ; Move to side a little
G1 X0.4 Y20 Z0.3 F1500.0 E30 ; Draw the second line
G92 E0 ; Reset Extruder
G1 Z2.0 F3000 ; Move Z Axis up little to prevent scratching of Heat Bed
G1 X5 Y20 Z0.3 F5000.0 ; Move over to prevent blob squish
G92 E0
G92 E0
G1 F1500 E-6.5
;LAYER_COUNT:10
;LAYER:0
M107
G0 F6000 X39.376 Y52.016 Z0.2
;TYPE:SKIRT
G1 F1500 E0
G1 F1200 X40.162 Y51.504 E0.0312
G1 X40.989 Y51.062 E0.06239
G1 X41.851 Y50.692 E0.09359
G1 X42.741 Y50.396 E0.12478
G1 X43.653 Y50.178 E0.15597
G1 X44.58 Y50.037 E0.18716
G1 X45.451 Y49.978 E0.21619
G1 X46.08 Y49.965 E0.23712
G1 X173.701 Y49.966 E4.48181
G1 X174.399 Y49.976 E4.50503
G1 X175.335 Y50.03 E4.53621
G1 X176.263 Y50.162 E4.56739
G1 X177.177 Y50.374 E4.59859
G1 X178.069 Y50.663 E4.62978
G1 X178.934 Y51.026 E4.66098
G1 X179.764 Y51.462 E4.69216
G1 X180.555 Y51.967 E4.72338
G1 X181.299 Y52.538 E4.75457
G1 X181.992 Y53.17 E4.78577
G1 X182.629 Y53.858 E4.81695
G1 X183.204 Y54.599 E4.84815
G1 X183.715 Y55.385 E4.87933
G1 X184.157 Y56.213 E4.91055
G1 X184.526 Y57.075 E4.94173
G1 X184.821 Y57.965 E4.97292
G1 X185.039 Y58.877 E5.00411
G1 X185.179 Y59.805 E5.03532
G1 X185.237 Y60.666 E5.06402
G1 X185.25 Y61.295 E5.08495
G1 X185.249 Y158.435 E8.31584
G1 X185.24 Y159.162 E8.34002
G1 X185.189 Y160.099 E8.37123
G1 X185.057 Y161.027 E8.40241
G1 X184.848 Y161.941 E8.43359
G1 X184.561 Y162.834 E8.46479
G1 X184.199 Y163.7 E8.49601
G1 X183.765 Y164.531 E8.52719
G1 X183.261 Y165.322 E8.55838
G1 X182.692 Y166.067 E8.58956
G1 X182.061 Y166.762 E8.62078
G1 X181.374 Y167.4 E8.65197
G1 X180.635 Y167.977 E8.68315
G1 X179.849 Y168.489 E8.71435
G1 X179.023 Y168.932 E8.74553
G1 X178.161 Y169.304 E8.77675
G1 X177.272 Y169.6 E8.80792
G1 X176.36 Y169.82 E8.83912
G1 X175.433 Y169.961 E8.87031
G1 X174.549 Y170.022 E8.89978
G1 X173.92 Y170.035 E8.9207
G1 X46.315 Y170.034 E13.16486
G1 X45.617 Y170.025 E13.18808
G1 X44.681 Y169.973 E13.21926
G1 X43.752 Y169.841 E13.25047
G1 X42.838 Y169.631 E13.28166
G1 X41.945 Y169.344 E13.31286
G1 X41.08 Y168.981 E13.34406
G1 X40.249 Y168.547 E13.37524
G1 X39.458 Y168.043 E13.40644
G1 X38.713 Y167.473 E13.43764
G1 X38.019 Y166.842 E13.46883
G1 X37.382 Y166.155 E13.49999
G1 X36.805 Y165.415 E13.5312
G1 X36.293 Y164.629 E13.5624
G1 X35.85 Y163.802 E13.59361
G1 X35.479 Y162.941 E13.62479
G1 X35.183 Y162.051 E13.65598
G1 X34.964 Y161.139 E13.68718
G1 X34.823 Y160.212 E13.71837
G1 X34.763 Y159.323 E13.748
G1 X34.75 Y158.693 E13.76896
G1 X34.751 Y61.49 E17.00195
G1 X34.76 Y60.825 E17.02407
G1 X34.813 Y59.889 E17.05525
G1 X34.945 Y58.96 E17.08646
G1 X35.156 Y58.046 E17.11766
G1 X35.444 Y57.154 E17.14883
G1 X35.807 Y56.289 E17.18003
G1 X36.242 Y55.458 E17.21123
G1 X36.746 Y54.668 E17.2424
G1 X37.316 Y53.923 E17.2736
G1 X37.948 Y53.229 E17.30482
G1 X38.636 Y52.592 E17.336
G1 X39.376 Y52.016 E17.36719
G0 F6000 X39.76 Y52.235
G1 F1200 X40.541 Y51.747 E17.39782
G1 X41.361 Y51.329 E17.42843
G1 X42.215 Y50.984 E17.45907
G1 X43.095 Y50.714 E17.48968
G1 X43.995 Y50.522 E17.52029
G1 X44.909 Y50.408 E17.55093
G1 X45.462 Y50.378 E17.56935
G1 X46.08 Y50.365 E17.58991
G1 X173.695 Y50.366 E21.8344
G1 X174.393 Y50.376 E21.85762
G1 X175.312 Y50.429 E21.88823
G1 X176.223 Y50.562 E21.91885
G1 X177.119 Y50.773 E21.94947
G1 X177.993 Y51.061 E21.98008
G1 X178.84 Y51.424 E22.01073
G1 X179.651 Y51.859 E22.04134
G1 X180.421 Y52.363 E22.07194
G1 X181.145 Y52.932 E22.10257
G1 X181.817 Y53.562 E22.13321
G1 X182.432 Y54.247 E22.16383
G1 X182.985 Y54.983 E22.19445
G1 X183.472 Y55.764 E22.22506
G1 X183.889 Y56.585 E22.25569
G1 X184.234 Y57.439 E22.28632
G1 X184.503 Y58.319 E22.31693
G1 X184.695 Y59.22 E22.34757
G1 X184.808 Y60.133 E22.37816
G1 X184.837 Y60.677 E22.39628
G1 X184.85 Y61.295 E22.41684
G1 X184.849 Y158.43 E25.64757
G1 X184.84 Y159.157 E25.67175
G1 X184.789 Y160.076 E25.70236
G1 X184.658 Y160.988 E25.73301
G1 X184.448 Y161.884 E25.76361
G1 X184.162 Y162.759 E25.79423
G1 X183.801 Y163.606 E25.82485
G1 X183.367 Y164.418 E25.85548
G1 X182.865 Y165.19 E25.88611
G1 X182.297 Y165.915 E25.91674
G1 X181.669 Y166.588 E25.94735
G1 X180.985 Y167.204 E25.97797
G1 X180.25 Y167.758 E26.00858
G1 X179.47 Y168.247 E26.0392
G1 X178.65 Y168.666 E26.06983
G1 X177.797 Y169.012 E26.10045
G1 X176.917 Y169.283 E26.13107
G1 X176.017 Y169.476 E26.16169
G1 X175.103 Y169.591 E26.19233
G1 X174.538 Y169.622 E26.21115
G1 X173.92 Y169.635 E26.2317
G1 X46.32 Y169.634 E30.4757
G1 X45.622 Y169.625 E30.49892
G1 X44.703 Y169.573 E30.52953
G1 X43.792 Y169.442 E30.56014
G1 X42.896 Y169.232 E30.59075
G1 X42.021 Y168.945 E30.62138
G1 X41.174 Y168.583 E30.65202
G1 X40.362 Y168.149 E30.68264
G1 X39.591 Y167.647 E30.71324
G1 X38.866 Y167.079 E30.74387
G1 X38.193 Y166.45 E30.77451
G1 X37.578 Y165.766 E30.8051
G1 X37.024 Y165.031 E30.83572
G1 X36.536 Y164.25 E30.86635
G1 X36.117 Y163.43 E30.89697
G1 X35.771 Y162.577 E30.92759
G1 X35.501 Y161.697 E30.95821
G1 X35.308 Y160.796 E30.98885
G1 X35.194 Y159.883 E31.01945
G1 X35.163 Y159.312 E31.03847
G1 X35.15 Y158.693 E31.05907
G1 X35.151 Y61.496 E34.29185
G1 X35.16 Y60.831 E34.31397
G1 X35.212 Y59.911 E34.34462
G1 X35.344 Y59 E34.37524
G1 X35.555 Y58.104 E34.40585
G1 X35.842 Y57.229 E34.43648
G1 X36.205 Y56.383 E34.4671
G1 X36.639 Y55.571 E34.49772
G1 X37.142 Y54.8 E34.52834
G1 X37.711 Y54.076 E34.55897
G1 X38.339 Y53.404 E34.58956
G1 X39.024 Y52.788 E34.6202
G1 X39.76 Y52.235 E34.65082
G0 F6000 X40.144 Y52.459
G1 F1200 X40.919 Y51.996 E34.68085
G1 X41.732 Y51.603 E34.71088
G1 X42.577 Y51.283 E34.74093
G1 X43.446 Y51.04 E34.77094
G1 X44.334 Y50.874 E34.80099
G1 X45.473 Y50.778 E34.83901
G1 X46.08 Y50.765 E34.8592
G1 X173.689 Y50.766 E39.10349
G1 X174.387 Y50.776 E39.12671
G1 X175.289 Y50.829 E39.15677
G1 X176.182 Y50.961 E39.18679
G1 X177.06 Y51.172 E39.21682
G1 X177.916 Y51.46 E39.24686
G1 X178.743 Y51.822 E39.27689
G1 X179.535 Y52.257 E39.30694
G1 X180.286 Y52.759 E39.33699
G1 X180.989 Y53.326 E39.36703
G1 X181.639 Y53.953 E39.39706
G1 X182.231 Y54.635 E39.4271
G1 X182.761 Y55.366 E39.45713
G1 X183.223 Y56.142 E39.48717
G1 X183.616 Y56.955 E39.5172
G1 X183.934 Y57.8 E39.54723
G1 X184.177 Y58.67 E39.57728
G1 X184.342 Y59.558 E39.60732
G1 X184.437 Y60.688 E39.64503
G1 X184.45 Y61.295 E39.66523
G1 X184.449 Y158.425 E42.89578
G1 X184.44 Y159.152 E42.91997
G1 X184.389 Y160.054 E42.95001
G1 X184.258 Y160.948 E42.98007
G1 X184.049 Y161.826 E43.01009
G1 X183.763 Y162.683 E43.04013
G1 X183.402 Y163.511 E43.07018
G1 X182.97 Y164.303 E43.10018
G1 X182.469 Y165.055 E43.13024
G1 X181.903 Y165.759 E43.16028
G1 X181.278 Y166.41 E43.1903
G1 X180.597 Y167.004 E43.22035
G1 X179.866 Y167.535 E43.2504
G1 X179.092 Y167.999 E43.28042
G1 X178.279 Y168.393 E43.31047
G1 X177.435 Y168.713 E43.34049
G1 X176.565 Y168.958 E43.37055
G1 X175.678 Y169.124 E43.40056
G1 X174.527 Y169.222 E43.43899
G1 X173.92 Y169.235 E43.45918
G1 X46.325 Y169.234 E47.70301
G1 X45.627 Y169.225 E47.72622
G1 X44.726 Y169.174 E47.75624
G1 X43.832 Y169.042 E47.7863
G1 X42.954 Y168.833 E47.81631
G1 X42.097 Y168.546 E47.84637
G1 X41.27 Y168.185 E47.87639
G1 X40.477 Y167.752 E47.90644
G1 X39.726 Y167.251 E47.93646
G1 X39.022 Y166.685 E47.96651
G1 X38.371 Y166.059 E47.99655
G1 X37.778 Y165.378 E48.02658
G1 X37.248 Y164.647 E48.05661
G1 X36.784 Y163.872 E48.08666
G1 X36.39 Y163.059 E48.1167
G1 X36.07 Y162.215 E48.14673
G1 X35.826 Y161.345 E48.17678
G1 X35.66 Y160.457 E48.20682
G1 X35.563 Y159.302 E48.24538
G1 X35.55 Y158.693 E48.26564
G1 X35.551 Y61.501 E51.49825
G1 X35.56 Y60.836 E51.52037
G1 X35.612 Y59.934 E51.55043
G1 X35.744 Y59.041 E51.58045
G1 X35.954 Y58.163 E51.61048
G1 X36.241 Y57.306 E51.64054
G1 X36.603 Y56.479 E51.67056
G1 X37.036 Y55.687 E51.70058
G1 X37.538 Y54.936 E51.73063
G1 X38.105 Y54.232 E51.76069
G1 X38.731 Y53.582 E51.79071
G1 X39.412 Y52.989 E51.82074
G1 X40.144 Y52.459 E51.8508
G1 F1500 E45.3508
;MESH:srodkowy_panel.stl
G0 F6000 X90.713 Y94.102
G0 X93.03 Y97.101
;TYPE:WALL-INNER
G1 F1500 E51.8508
G1 F1200 X92.562 Y97.099 E51.86637
G1 X91.988 Y96.949 E51.8861
G1 X91.551 Y96.703 E51.90278
G1 X91.23 Y96.395 E51.91757
G1 X90.989 Y96.079 E51.93079
G1 X90.711 Y95.405 E51.95504
G1 X90.711 Y94.751 E51.97679
G1 X90.745 Y94.549 E51.98361
G1 X90.903 Y94.106 E51.99925
G1 X91.12 Y93.753 E52.01303
G1 X91.566 Y93.281 E52.03463
G1 X92.073 Y93.04 E52.0533
G1 X92.498 Y92.927 E52.06793
G1 X93.01 Y92.916 E52.08496
G1 X93.506 Y93.026 E52.10186
G1 X93.901 Y93.219 E52.11648
G1 X94.325 Y93.547 E52.13431
G1 X94.449 Y93.686 E52.14051
G1 X94.762 Y94.209 E52.16078
G1 X94.885 Y94.704 E52.17774
G1 X94.895 Y95.21 E52.19458
G1 X94.844 Y95.527 E52.20525
G1 X94.615 Y96.084 E52.22528
G1 X94.35 Y96.431 E52.23981
G1 X94.051 Y96.705 E52.2533
G1 X93.613 Y96.953 E52.27004
G1 X93.03 Y97.101 E52.29004
G0 F6000 X92.97 Y96.703
;TYPE:WALL-OUTER
G1 F1200 X92.632 Y96.702 E52.30128
G1 X92.158 Y96.583 E52.31754
G1 X91.789 Y96.378 E52.33158
G1 X91.507 Y96.107 E52.34459
G1 X91.33 Y95.855 E52.35483
G1 X91.113 Y95.319 E52.37406
G1 X91.111 Y94.751 E52.39295
G1 X91.122 Y94.683 E52.39525
G1 X91.26 Y94.297 E52.40888
G1 X91.451 Y93.98 E52.42119
G1 X91.801 Y93.612 E52.43808
G1 X92.232 Y93.408 E52.45394
G1 X92.559 Y93.326 E52.46515
G1 X92.968 Y93.317 E52.47876
G1 X93.349 Y93.4 E52.49173
G1 X93.674 Y93.549 E52.50362
G1 X94.099 Y93.88 E52.52154
G1 X94.383 Y94.354 E52.53992
G1 X94.488 Y94.766 E52.55406
G1 X94.497 Y95.172 E52.56756
G1 X94.456 Y95.417 E52.57583
G1 X94.272 Y95.869 E52.59206
G1 X94.06 Y96.155 E52.6039
G1 X93.81 Y96.381 E52.61511
G1 X93.464 Y96.577 E52.62833
G1 X92.97 Y96.703 E52.64529
G1 F1500 E46.14529
G0 F6000 X92.97 Y97.003
G0 X94.441 Y96.595
G0 X102.315 Y98.991
G0 X106.601 Y101.806
;TYPE:WALL-INNER
G1 F1500 E52.64529
G1 F1200 X106.197 Y101.806 E52.65873
G1 X105.819 Y101.769 E52.67136
G1 X105.419 Y101.692 E52.68491
G1 X104.991 Y101.56 E52.6998
G1 X104.654 Y101.421 E52.71193
G1 X104.291 Y101.227 E52.72562
G1 X103.881 Y100.953 E52.74202
G1 X103.431 Y100.547 E52.76218
G1 X103.047 Y100.079 E52.78231
G1 X102.778 Y99.635 E52.79958
G1 X102.612 Y99.281 E52.81258
G1 X102.477 Y98.907 E52.82581
G1 X102.378 Y98.512 E52.83935
G1 X102.305 Y98.012 E52.85616
G1 X102.304 Y97.538 E52.87193
G1 X102.344 Y97.108 E52.88629
G1 X102.44 Y96.617 E52.90293
G1 X102.608 Y96.149 E52.91947
G1 X102.827 Y95.685 E52.93653
G1 X103.101 Y95.274 E52.95296
G1 X103.407 Y94.899 E52.96906
G1 X103.869 Y94.475 E52.98992
G1 X104.355 Y94.149 E53.00938
G1 X104.843 Y93.917 E53.02735
G1 X105.184 Y93.791 E53.03944
G1 X105.707 Y93.662 E53.05736
G1 X106.19 Y93.614 E53.0735
G1 X106.593 Y93.614 E53.08691
G1 X107.077 Y93.66 E53.10308
G1 X107.58 Y93.782 E53.12029
G1 X107.96 Y93.918 E53.13372
G1 X108.329 Y94.09 E53.14726
G1 X108.743 Y94.34 E53.16334
G1 X109.217 Y94.722 E53.18359
G1 X109.631 Y95.171 E53.2039
G1 X109.966 Y95.673 E53.22398
G1 X110.188 Y96.139 E53.24115
G1 X110.356 Y96.604 E53.25759
G1 X110.45 Y97.067 E53.2733
G1 X110.493 Y97.466 E53.28665
G1 X110.494 Y97.931 E53.30212
G1 X110.455 Y98.319 E53.31509
G1 X110.348 Y98.832 E53.33252
G1 X110.182 Y99.293 E53.34881
G1 X110.006 Y99.663 E53.36244
G1 X109.794 Y100.009 E53.37594
G1 X109.571 Y100.311 E53.38842
G1 X109.232 Y100.684 E53.40519
G1 X108.842 Y101.006 E53.42201
G1 X108.527 Y101.216 E53.4346
G1 X108.165 Y101.412 E53.44829
G1 X107.794 Y101.566 E53.46165
G1 X107.406 Y101.686 E53.47516
G1 X107.004 Y101.766 E53.48879
G1 X106.601 Y101.806 E53.50226
G0 F6000 X106.19 Y101.405
;TYPE:WALL-OUTER
G1 F1200 X105.847 Y101.369 E53.51373
G1 X105.489 Y101.297 E53.52588
G1 X105.143 Y101.19 E53.53793
G1 X104.807 Y101.051 E53.55002
G1 X104.488 Y100.878 E53.56209
G1 X104.126 Y100.637 E53.57655
G1 X103.72 Y100.271 E53.59473
G1 X103.363 Y99.833 E53.61353
G1 X103.14 Y99.463 E53.6279
G1 X102.978 Y99.118 E53.64057
G1 X102.855 Y98.774 E53.65272
G1 X102.77 Y98.434 E53.66438
G1 X102.704 Y97.982 E53.67957
G1 X102.704 Y97.538 E53.69434
G1 X102.741 Y97.157 E53.70707
G1 X102.827 Y96.725 E53.72172
G1 X102.985 Y96.285 E53.73727
G1 X103.175 Y95.881 E53.75212
G1 X103.422 Y95.512 E53.76689
G1 X103.707 Y95.164 E53.78185
G1 X104.114 Y94.791 E53.80021
G1 X104.573 Y94.485 E53.81856
G1 X104.983 Y94.292 E53.83363
G1 X105.321 Y94.167 E53.84562
G1 X105.764 Y94.058 E53.86079
G1 X106.199 Y94.014 E53.87533
G1 X106.584 Y94.014 E53.88814
G1 X107.021 Y94.056 E53.90274
G1 X107.475 Y94.168 E53.91829
G1 X107.817 Y94.292 E53.93039
G1 X108.146 Y94.446 E53.94248
G1 X108.536 Y94.684 E53.95767
G1 X108.944 Y95.014 E53.97513
G1 X109.315 Y95.419 E53.99339
G1 X109.611 Y95.858 E54.011
G1 X109.819 Y96.293 E54.02704
G1 X109.973 Y96.725 E54.04229
G1 X110.058 Y97.146 E54.05658
G1 X110.095 Y97.507 E54.06865
G1 X110.096 Y97.893 E54.08149
G1 X110.06 Y98.254 E54.09355
G1 X109.979 Y98.67 E54.10765
G1 X109.819 Y99.125 E54.12369
G1 X109.664 Y99.456 E54.13585
G1 X109.482 Y99.757 E54.14755
G1 X109.255 Y100.066 E54.1603
G1 X108.957 Y100.394 E54.17504
G1 X108.604 Y100.684 E54.19023
G1 X108.31 Y100.88 E54.20199
G1 X107.974 Y101.06 E54.21466
G1 X107.64 Y101.196 E54.22666
G1 X107.291 Y101.302 E54.23879
G1 X106.953 Y101.369 E54.25025
G1 X106.592 Y101.406 E54.26232
G1 X106.19 Y101.405 E54.27569
G1 F1500 E47.77569
G0 F6000 X106.139 Y101.903
G0 X108.214 Y101.588
G0 X122.92 Y101.588
G0 X123.175 Y104.497
;TYPE:WALL-INNER
G1 F1500 E54.27569
G1 F1200 X123.103 Y104.274 E54.28349
G1 X123.1 Y91.204 E54.7182
G1 X123.143 Y90.978 E54.72585
G1 X123.324 Y90.735 E54.73592
G1 X123.633 Y90.604 E54.74709
G1 X136.777 Y90.608 E55.18426
G1 X137.068 Y90.729 E55.19474
G1 X137.205 Y90.878 E55.20147
G1 X137.3 Y91.138 E55.21068
G1 X137.298 Y104.257 E55.64702
G1 X137.205 Y104.53 E55.65661
G1 X137.068 Y104.679 E55.66334
G1 X136.777 Y104.8 E55.67383
G1 X123.619 Y104.799 E56.11146
G1 X123.413 Y104.732 E56.11867
G1 X123.175 Y104.497 E56.12979
G0 F6000 X123.573 Y104.36
;TYPE:WALL-OUTER
G1 F1200 X123.5 Y104.217 E56.13513
G1 X123.5 Y91.204 E56.56795
G1 X123.53 Y91.097 E56.57164
G1 X123.669 Y91.006 E56.57717
G1 X136.726 Y91.005 E57.01145
G1 X136.823 Y91.045 E57.01494
G1 X136.898 Y91.172 E57.01984
G1 X136.9 Y104.222 E57.45389
G1 X136.823 Y104.363 E57.45923
G1 X136.726 Y104.403 E57.46272
G1 X123.673 Y104.403 E57.89686
G1 X123.573 Y104.36 E57.90048
G1 F1500 E51.40048
G0 F6000 X123.573 Y104.704
G0 X123.272 Y104.632
G0 X122.919 Y91.204
G0 X120.038 Y87.606
G0 X118.781 Y87.417
;TYPE:WALL-INNER
G1 F1500 E57.90048
G1 F1200 X118.339 Y87.217 E57.91662
G1 X118.054 Y87.021 E57.92812
G1 X117.724 Y86.672 E57.9441
G1 X117.498 Y86.304 E57.95846
G1 X117.307 Y85.763 E57.97755
G1 X117.307 Y85.255 E57.99444
G1 X117.317 Y85.142 E57.99822
G1 X117.455 Y84.611 E58.01646
G1 X117.615 Y84.298 E58.02815
G1 X117.9 Y83.927 E58.04371
G1 X118.247 Y83.649 E58.0585
G1 X118.594 Y83.461 E58.07163
G1 X119.081 Y83.327 E58.08843
G1 X119.63 Y83.312 E58.1067
G1 X120.188 Y83.457 E58.12587
G1 X120.651 Y83.709 E58.1434
G1 X121.129 Y84.163 E58.16533
G1 X121.378 Y84.692 E58.18478
G1 X121.483 Y85.096 E58.19866
G1 X121.491 Y85.607 E58.21566
G1 X121.386 Y86.099 E58.23239
G1 X121.139 Y86.626 E58.25175
G1 X120.619 Y87.143 E58.27614
G1 X120 Y87.437 E58.29893
G1 X119.387 Y87.51 E58.31946
G1 X118.781 Y87.417 E58.33985
G0 F6000 X118.912 Y87.034
;TYPE:WALL-OUTER
G1 F1200 X118.546 Y86.874 E58.35314
G1 X118.329 Y86.725 E58.36189
G1 X118.05 Y86.438 E58.37521
G1 X117.868 Y86.143 E58.38674
G1 X117.712 Y85.714 E58.40192
G1 X117.707 Y85.255 E58.41719
G1 X117.71 Y85.217 E58.41845
G1 X117.827 Y84.758 E58.43421
G1 X117.948 Y84.52 E58.44309
G1 X118.189 Y84.209 E58.45617
G1 X118.445 Y83.998 E58.46721
G1 X118.744 Y83.835 E58.47854
G1 X119.144 Y83.722 E58.49236
G1 X119.565 Y83.711 E58.50637
