;FLAVOR:Marlin
;TIME:6799
;Filament used: 4.95009m
;Layer height: 0.2
;MINX:34.75
;MINY:70.422
;MINZ:0.2
;MAXX:185.25
;MAXY:149.578
;MAXZ:2
;Generated with Cura_SteamEngine 5.2.1
M82 ;absolute extrusion mode
; Ender 3 Custom Start G-code
G92 E0 ; Reset Extruder
G28 ; Home all axes
M104 S175 ; Start heating up the nozzle most of the way
M190 S60 ; Start heating the bed, wait until target temperature reached
M109 S200 ; Finish heating the nozzle
G1 Z2.0 F3000 ; Move Z Axis up little to prevent scratching of Heat Bed
G1 X0.1 Y20 Z0.3 F5000.0 ; Move to start position
G1 X0.1 Y200.0 Z0.3 F1500.0 E15 ; Draw the first line
G1 X0.4 Y200.0 Z0.3 F5000.0 ; Move to side a little
G1 X0.4 Y20 Z0.3 F1500.0 E30 ; Draw the second line
G92 E0 ; Reset Extruder
G1 Z2.0 F3000 ; Move Z Axis up little to prevent scratching of Heat Bed
G1 X5 Y20 Z0.3 F5000.0 ; Move over to prevent blob squish
G92 E0
G92 E0
G1 F1500 E-6.5
;LAYER_COUNT:10
;LAYER:0
M107
G0 F6000 X40.162 Y71.961 Z0.2
;TYPE:SKIRT
G1 F1500 E0
G1 F1200 X40.989 Y71.519 E0.03119
G1 X41.851 Y71.149 E0.06239
G1 X42.741 Y70.853 E0.09358
G1 X43.653 Y70.635 E0.12477
G1 X44.58 Y70.494 E0.15596
G1 X45.451 Y70.435 E0.18499
G1 X46.08 Y70.422 E0.20592
G1 X173.701 Y70.423 E4.45061
G1 X174.399 Y70.433 E4.47383
G1 X175.335 Y70.487 E4.50501
G1 X176.263 Y70.619 E4.53619
G1 X177.177 Y70.831 E4.5674
G1 X178.069 Y71.12 E4.59858
G1 X178.934 Y71.483 E4.62978
G1 X179.764 Y71.919 E4.66097
G1 X180.555 Y72.424 E4.69218
G1 X181.299 Y72.995 E4.72337
G1 X181.992 Y73.627 E4.75457
G1 X182.629 Y74.315 E4.78575
G1 X183.204 Y75.056 E4.81695
G1 X183.715 Y75.842 E4.84813
G1 X184.157 Y76.67 E4.87935
G1 X184.526 Y77.532 E4.91053
G1 X184.821 Y78.422 E4.94172
G1 X185.039 Y79.334 E4.97291
G1 X185.179 Y80.262 E5.00412
G1 X185.237 Y81.123 E5.03282
G1 X185.25 Y81.752 E5.05375
G1 X185.249 Y137.978 E6.92383
G1 X185.24 Y138.705 E6.94801
G1 X185.189 Y139.642 E6.97922
G1 X185.057 Y140.57 E7.0104
G1 X184.848 Y141.484 E7.04159
G1 X184.561 Y142.377 E7.07278
G1 X184.199 Y143.243 E7.104
G1 X183.765 Y144.074 E7.13518
G1 X183.261 Y144.865 E7.16638
G1 X182.692 Y145.61 E7.19756
G1 X182.061 Y146.305 E7.22878
G1 X181.374 Y146.943 E7.25996
G1 X180.635 Y147.52 E7.29115
G1 X179.849 Y148.032 E7.32235
G1 X179.023 Y148.475 E7.35352
G1 X178.161 Y148.847 E7.38475
G1 X177.272 Y149.143 E7.41591
G1 X176.36 Y149.363 E7.44711
G1 X175.433 Y149.504 E7.4783
G1 X174.549 Y149.565 E7.50777
G1 X173.92 Y149.578 E7.5287
G1 X46.315 Y149.577 E11.77286
G1 X45.617 Y149.568 E11.79608
G1 X44.681 Y149.516 E11.82725
G1 X43.752 Y149.384 E11.85846
G1 X42.838 Y149.174 E11.88966
G1 X41.945 Y148.887 E11.92085
G1 X41.08 Y148.524 E11.95205
G1 X40.249 Y148.09 E11.98324
G1 X39.458 Y147.586 E12.01443
G1 X38.713 Y147.016 E12.04563
G1 X38.019 Y146.385 E12.07683
G1 X37.382 Y145.698 E12.10799
G1 X36.805 Y144.958 E12.1392
G1 X36.293 Y144.172 E12.1704
G1 X35.85 Y143.345 E12.2016
G1 X35.479 Y142.484 E12.23278
G1 X35.183 Y141.594 E12.26398
G1 X34.964 Y140.682 E12.29518
G1 X34.823 Y139.755 E12.32636
G1 X34.763 Y138.866 E12.356
G1 X34.75 Y138.236 E12.37696
G1 X34.751 Y81.947 E14.24914
G1 X34.76 Y81.282 E14.27126
G1 X34.813 Y80.346 E14.30244
G1 X34.945 Y79.417 E14.33365
G1 X35.156 Y78.503 E14.36485
G1 X35.444 Y77.611 E14.39602
G1 X35.807 Y76.746 E14.42722
G1 X36.242 Y75.915 E14.45842
G1 X36.746 Y75.125 E14.48959
G1 X37.316 Y74.38 E14.52079
G1 X37.948 Y73.686 E14.55201
G1 X38.636 Y73.049 E14.58319
G1 X39.376 Y72.473 E14.61438
G1 X40.162 Y71.961 E14.64558
G0 F6000 X40.541 Y72.204
G1 F1200 X41.361 Y71.786 E14.67619
G1 X42.215 Y71.441 E14.70683
G1 X43.095 Y71.171 E14.73744
G1 X43.995 Y70.979 E14.76805
G1 X44.909 Y70.865 E14.79869
G1 X45.462 Y70.835 E14.81711
G1 X46.08 Y70.822 E14.83766
G1 X173.695 Y70.823 E19.08216
G1 X174.393 Y70.833 E19.10537
G1 X175.312 Y70.886 E19.13599
G1 X176.223 Y71.019 E19.16661
G1 X177.119 Y71.23 E19.19723
G1 X177.993 Y71.518 E19.22784
G1 X178.84 Y71.881 E19.25849
G1 X179.651 Y72.316 E19.28909
G1 X180.421 Y72.82 E19.3197
G1 X181.145 Y73.389 E19.35033
G1 X181.817 Y74.019 E19.38097
G1 X182.432 Y74.704 E19.41159
G1 X182.985 Y75.44 E19.44221
G1 X183.472 Y76.221 E19.47282
G1 X183.889 Y77.042 E19.50344
G1 X184.234 Y77.896 E19.53408
G1 X184.503 Y78.776 E19.56468
G1 X184.695 Y79.677 E19.59533
G1 X184.808 Y80.59 E19.62592
G1 X184.837 Y81.134 E19.64404
G1 X184.85 Y81.752 E19.6646
G1 X184.849 Y137.973 E21.53452
G1 X184.84 Y138.7 E21.5587
G1 X184.789 Y139.619 E21.58931
G1 X184.658 Y140.531 E21.61996
G1 X184.448 Y141.427 E21.65057
G1 X184.162 Y142.302 E21.68119
G1 X183.801 Y143.149 E21.71181
G1 X183.367 Y143.961 E21.74243
G1 X182.865 Y144.733 E21.77306
G1 X182.297 Y145.458 E21.80369
G1 X181.669 Y146.131 E21.83431
G1 X180.985 Y146.747 E21.86492
G1 X180.25 Y147.301 E21.89554
G1 X179.47 Y147.79 E21.92616
G1 X178.65 Y148.209 E21.95678
G1 X177.797 Y148.555 E21.9874
G1 X176.917 Y148.826 E22.01803
G1 X176.017 Y149.019 E22.04864
G1 X175.103 Y149.134 E22.07928
G1 X174.538 Y149.165 E22.0981
G1 X173.92 Y149.178 E22.11866
G1 X46.32 Y149.177 E26.36265
G1 X45.622 Y149.168 E26.38587
G1 X44.703 Y149.116 E26.41649
G1 X43.792 Y148.985 E26.4471
G1 X42.896 Y148.775 E26.47771
G1 X42.021 Y148.488 E26.50833
G1 X41.174 Y148.126 E26.53897
G1 X40.362 Y147.692 E26.56959
G1 X39.591 Y147.19 E26.60019
G1 X38.866 Y146.622 E26.63083
G1 X38.193 Y145.993 E26.66146
G1 X37.578 Y145.309 E26.69206
G1 X37.024 Y144.574 E26.72267
G1 X36.536 Y143.793 E26.7533
G1 X36.117 Y142.973 E26.78393
G1 X35.771 Y142.12 E26.81454
G1 X35.501 Y141.24 E26.84516
G1 X35.308 Y140.339 E26.87581
G1 X35.194 Y139.426 E26.90641
G1 X35.163 Y138.855 E26.92543
G1 X35.15 Y138.236 E26.94602
G1 X35.151 Y81.953 E28.818
G1 X35.16 Y81.288 E28.84012
G1 X35.212 Y80.368 E28.87077
G1 X35.344 Y79.457 E28.90139
G1 X35.555 Y78.561 E28.932
G1 X35.842 Y77.686 E28.96263
G1 X36.205 Y76.84 E28.99325
G1 X36.639 Y76.028 E29.02387
G1 X37.142 Y75.257 E29.05449
G1 X37.711 Y74.533 E29.08512
G1 X38.339 Y73.861 E29.11571
G1 X39.024 Y73.245 E29.14635
G1 X39.76 Y72.692 E29.17697
G1 X40.541 Y72.204 E29.2076
G0 F6000 X40.919 Y72.453
G1 F1200 X41.732 Y72.06 E29.23763
G1 X42.577 Y71.74 E29.26769
G1 X43.446 Y71.497 E29.2977
G1 X44.334 Y71.331 E29.32774
G1 X45.473 Y71.235 E29.36576
G1 X46.08 Y71.222 E29.38596
G1 X173.689 Y71.223 E33.63025
G1 X174.387 Y71.233 E33.65347
G1 X175.289 Y71.286 E33.68352
G1 X176.182 Y71.418 E33.71354
G1 X177.06 Y71.629 E33.74358
G1 X177.916 Y71.917 E33.77361
G1 X178.743 Y72.279 E33.80364
G1 X179.535 Y72.714 E33.83369
G1 X180.286 Y73.216 E33.86374
G1 X180.989 Y73.783 E33.89378
G1 X181.639 Y74.41 E33.92382
G1 X182.231 Y75.092 E33.95385
G1 X182.761 Y75.823 E33.98388
G1 X183.223 Y76.599 E34.01392
G1 X183.616 Y77.412 E34.04396
G1 X183.934 Y78.257 E34.07399
G1 X184.177 Y79.127 E34.10403
G1 X184.342 Y80.015 E34.13407
G1 X184.437 Y81.145 E34.17179
G1 X184.45 Y81.752 E34.19198
G1 X184.449 Y137.968 E36.06173
G1 X184.44 Y138.695 E36.08591
G1 X184.389 Y139.597 E36.11596
G1 X184.258 Y140.491 E36.14601
G1 X184.049 Y141.369 E36.17603
G1 X183.763 Y142.226 E36.20608
G1 X183.402 Y143.054 E36.23613
G1 X182.97 Y143.846 E36.26613
G1 X182.469 Y144.598 E36.29619
G1 X181.903 Y145.302 E36.32623
G1 X181.278 Y145.953 E36.35625
G1 X180.597 Y146.547 E36.3863
G1 X179.866 Y147.078 E36.41635
G1 X179.092 Y147.542 E36.44637
G1 X178.279 Y147.936 E36.47642
G1 X177.435 Y148.256 E36.50644
G1 X176.565 Y148.501 E36.5365
G1 X175.678 Y148.667 E36.56651
G1 X174.527 Y148.765 E36.60493
G1 X173.92 Y148.778 E36.62513
G1 X46.325 Y148.777 E40.86895
G1 X45.627 Y148.768 E40.89217
G1 X44.726 Y148.717 E40.92219
G1 X43.832 Y148.585 E40.95224
G1 X42.954 Y148.376 E40.98226
G1 X42.097 Y148.089 E41.01232
G1 X41.27 Y147.728 E41.04233
G1 X40.477 Y147.295 E41.07239
G1 X39.726 Y146.794 E41.10241
G1 X39.022 Y146.228 E41.13246
G1 X38.371 Y145.602 E41.16249
G1 X37.778 Y144.921 E41.19253
G1 X37.248 Y144.19 E41.22256
G1 X36.784 Y143.415 E41.2526
G1 X36.39 Y142.602 E41.28265
G1 X36.07 Y141.758 E41.31267
G1 X35.826 Y140.888 E41.34273
G1 X35.66 Y140 E41.37277
G1 X35.563 Y138.845 E41.41132
G1 X35.55 Y138.236 E41.43158
G1 X35.551 Y81.958 E43.3034
G1 X35.56 Y81.293 E43.32552
G1 X35.612 Y80.391 E43.35557
G1 X35.744 Y79.498 E43.38559
G1 X35.954 Y78.62 E43.41562
G1 X36.241 Y77.763 E43.44568
G1 X36.603 Y76.936 E43.4757
G1 X37.036 Y76.144 E43.50573
G1 X37.538 Y75.393 E43.53577
G1 X38.105 Y74.689 E43.56584
G1 X38.731 Y74.039 E43.59585
G1 X39.412 Y73.446 E43.62588
G1 X40.144 Y72.916 E43.65594
G1 X40.919 Y72.453 E43.68597
G1 F1500 E37.18597
;MESH:prawy_panel.stl
G0 F6000 X77.468 Y104.665
G0 X82.436 Y109.887
;TYPE:WALL-INNER
G1 F1500 E43.68597
G1 F1200 X81.885 Y109.966 E43.70448
G1 X81.373 Y109.968 E43.72151
G1 X81.001 Y109.932 E43.73394
G1 X80.577 Y109.85 E43.74831
G1 X80.115 Y109.71 E43.76436
G1 X79.567 Y109.454 E43.78448
G1 X79.06 Y109.12 E43.80467
G1 X78.674 Y108.772 E43.82196
G1 X78.404 Y108.474 E43.83533
G1 X78.164 Y108.147 E43.84882
G1 X77.958 Y107.805 E43.8621
G1 X77.786 Y107.441 E43.87549
G1 X77.65 Y107.062 E43.88889
G1 X77.533 Y106.595 E43.9049
G1 X77.479 Y106.076 E43.92225
G1 X77.479 Y105.7 E43.93476
G1 X77.533 Y105.148 E43.95321
G1 X77.651 Y104.682 E43.9692
G1 X77.783 Y104.312 E43.98226
G1 X77.992 Y103.865 E43.99867
G1 X78.275 Y103.437 E44.01574
G1 X78.6 Y103.04 E44.0328
G1 X79.016 Y102.662 E44.0515
G1 X79.545 Y102.299 E44.07284
G1 X80.021 Y102.079 E44.09028
G1 X80.468 Y101.916 E44.1061
G1 X80.949 Y101.82 E44.12242
G1 X81.333 Y101.779 E44.13526
G1 X81.797 Y101.778 E44.15069
G1 X82.139 Y101.811 E44.16212
G1 X82.661 Y101.912 E44.17981
G1 X83.161 Y102.092 E44.19748
G1 X83.499 Y102.25 E44.20989
G1 X83.933 Y102.512 E44.22675
G1 X84.406 Y102.897 E44.24704
G1 X84.799 Y103.328 E44.26644
G1 X85.151 Y103.853 E44.28746
G1 X85.348 Y104.266 E44.30268
G1 X85.49 Y104.65 E44.3163
G1 X85.62 Y105.166 E44.33399
G1 X85.671 Y105.659 E44.35048
G1 X85.671 Y106.065 E44.36398
G1 X85.628 Y106.492 E44.37826
G1 X85.539 Y106.951 E44.39381
G1 X85.375 Y107.413 E44.41011
G1 X85.193 Y107.805 E44.42449
G1 X84.983 Y108.154 E44.43803
G1 X84.791 Y108.412 E44.44873
G1 X84.472 Y108.776 E44.46483
G1 X84.176 Y109.043 E44.47809
G1 X83.857 Y109.278 E44.49127
G1 X83.439 Y109.531 E44.50752
G1 X82.958 Y109.733 E44.52487
G1 X82.436 Y109.887 E44.54297
G0 F6000 X82.367 Y109.493
;TYPE:WALL-OUTER
G1 F1200 X81.847 Y109.568 E44.56044
G1 X81.383 Y109.568 E44.57588
G1 X81.041 Y109.534 E44.58731
G1 X80.674 Y109.462 E44.59975
G1 X80.249 Y109.333 E44.61452
G1 X79.755 Y109.101 E44.63267
G1 X79.29 Y108.792 E44.65124
G1 X78.957 Y108.489 E44.66622
G1 X78.707 Y108.213 E44.6786
G1 X78.493 Y107.92 E44.69067
G1 X78.31 Y107.616 E44.70247
G1 X78.152 Y107.279 E44.71485
G1 X78.033 Y106.946 E44.72661
G1 X77.925 Y106.517 E44.74133
G1 X77.879 Y106.066 E44.7564
G1 X77.879 Y105.7 E44.76858
G1 X77.925 Y105.226 E44.78442
G1 X78.036 Y104.789 E44.79941
G1 X78.16 Y104.448 E44.81148
G1 X78.351 Y104.044 E44.82634
G1 X78.591 Y103.683 E44.84076
G1 X78.89 Y103.316 E44.85651
G1 X79.295 Y102.95 E44.87466
G1 X79.755 Y102.643 E44.89306
G1 X80.143 Y102.461 E44.90731
G1 X80.575 Y102.303 E44.92261
G1 X81.032 Y102.212 E44.93811
G1 X81.374 Y102.177 E44.94954
G1 X81.759 Y102.176 E44.96235
G1 X82.101 Y102.209 E44.97378
G1 X82.569 Y102.302 E44.98965
G1 X82.993 Y102.455 E45.00464
G1 X83.321 Y102.608 E45.01668
G1 X83.703 Y102.839 E45.03152
G1 X84.13 Y103.187 E45.04984
G1 X84.49 Y103.582 E45.06762
G1 X84.798 Y104.041 E45.08601
G1 X84.993 Y104.455 E45.10123
G1 X85.115 Y104.791 E45.11312
G1 X85.225 Y105.23 E45.12817
G1 X85.271 Y105.672 E45.14295
G1 X85.271 Y106.056 E45.15572
G1 X85.238 Y106.398 E45.16715
G1 X85.155 Y106.832 E45.18184
G1 X84.991 Y107.296 E45.19821
G1 X84.843 Y107.611 E45.20979
G1 X84.646 Y107.937 E45.22246
G1 X84.474 Y108.167 E45.23201
G1 X84.197 Y108.485 E45.24604
G1 X83.915 Y108.74 E45.25868
G1 X83.627 Y108.951 E45.27056
G1 X83.249 Y109.179 E45.28524
G1 X82.824 Y109.356 E45.30055
G1 X82.367 Y109.493 E45.31642
G1 F1500 E38.81642
G0 F6000 X82.443 Y109.986
G0 X83.927 Y109.447
G0 X118.314 Y107.874
G0 X119.39 Y107.978
;TYPE:WALL-INNER
G1 F1500 E45.31642
G1 F1200 X118.81 Y107.892 E45.33592
G1 X118.33 Y107.68 E45.35337
G1 X118.052 Y107.483 E45.36471
G1 X117.712 Y107.13 E45.38101
G1 X117.45 Y106.665 E45.39876
G1 X117.307 Y106.096 E45.41827
G1 X117.307 Y105.723 E45.43068
G1 X117.317 Y105.609 E45.43449
G1 X117.451 Y105.08 E45.45264
G1 X117.622 Y104.756 E45.46482
G1 X117.904 Y104.391 E45.48016
G1 X118.239 Y104.122 E45.49445
G1 X118.59 Y103.934 E45.50769
G1 X119.081 Y103.795 E45.52467
G1 X119.628 Y103.78 E45.54287
G1 X120.197 Y103.922 E45.56237
G1 X120.633 Y104.171 E45.57907
G1 X120.894 Y104.393 E45.59047
G1 X121.196 Y104.777 E45.60672
G1 X121.378 Y105.159 E45.62079
G1 X121.482 Y105.562 E45.63463
G1 X121.493 Y105.999 E45.64917
G1 X121.44 Y106.395 E45.66246
G1 X121.158 Y107.074 E45.68692
G1 X120.598 Y107.632 E45.71321
G1 X119.937 Y107.908 E45.73703
G1 X119.39 Y107.978 E45.75538
G0 F6000 X118.905 Y107.5
;TYPE:WALL-OUTER
G1 F1200 X118.53 Y107.334 E45.76902
G1 X118.302 Y107.169 E45.77838
G1 X118.033 Y106.888 E45.79131
G1 X117.827 Y106.519 E45.80537
G1 X117.707 Y106.041 E45.82176
G1 X117.707 Y105.723 E45.83234
G1 X117.708 Y105.696 E45.83324
G1 X117.83 Y105.219 E45.84961
G1 X117.95 Y104.984 E45.85839
G1 X118.191 Y104.674 E45.87145
G1 X118.439 Y104.47 E45.88213
G1 X118.744 Y104.303 E45.8937
G1 X119.144 Y104.19 E45.90752
G1 X119.565 Y104.179 E45.92153
G1 X120.045 Y104.296 E45.93796
G1 X120.405 Y104.5 E45.95172
G1 X120.604 Y104.669 E45.96041
G1 X120.853 Y104.989 E45.97389
G1 X121.005 Y105.314 E45.98582
G1 X121.078 Y105.595 E45.99548
G1 X121.091 Y106.047 E46.01052
G1 X121.041 Y106.313 E46.01952
G1 X120.817 Y106.845 E46.03872
G1 X120.367 Y107.292 E46.05982
G1 X119.817 Y107.525 E46.07969
G1 X119.412 Y107.572 E46.09325
G1 X118.905 Y107.5 E46.11028
G1 F1500 E39.61028
G0 F6000 X118.783 Y107.774
G0 X119.394 Y107.814
G0 X119.873 Y107.758
G0 X120.512 Y107.493
G0 X121.077 Y106.852
G0 X121.281 Y106.356
G0 X121.322 Y105.589
G0 X120.736 Y104.023
G0 X123.214 Y100.684
G0 X123.185 Y100.381
;TYPE:WALL-INNER
G1 F1500 E46.11028
G1 F1200 X123.105 Y100.151 E46.11838
G1 X123.1 Y87.072 E46.55339
G1 X123.132 Y86.877 E46.55996
G1 X123.265 Y86.658 E46.56848
G1 X123.57 Y86.472 E46.58036
G1 X136.821 Y86.472 E47.02109
G1 X137.113 Y86.636 E47.03223
G1 X137.253 Y86.838 E47.04041
G1 X137.297 Y87.003 E47.04609
G1 X137.298 Y100.125 E47.48253
G1 X137.205 Y100.398 E47.49212
G1 X137.068 Y100.547 E47.49885
G1 X136.777 Y100.668 E47.50933
G1 X123.651 Y100.671 E47.9459
G1 X123.396 Y100.591 E47.95479
G1 X123.185 Y100.381 E47.96469
G0 F6000 X123.598 Y100.245
;TYPE:WALL-OUTER
G1 F1200 X123.501 Y100.099 E47.97053
G1 X123.5 Y87.072 E48.4038
G1 X123.555 Y86.934 E48.40875
G1 X123.665 Y86.874 E48.41291
G1 X136.742 Y86.872 E48.84786
G1 X136.838 Y86.926 E48.85152
G1 X136.899 Y87.049 E48.85609
G1 X136.9 Y100.09 E49.28983
G1 X136.823 Y100.231 E49.29517
G1 X136.726 Y100.271 E49.29866
G1 X123.683 Y100.272 E49.73248
G1 X123.598 Y100.245 E49.73544
G1 F1500 E43.23544
G0 F6000 X123.598 Y100.572
G0 X137.128 Y100.5
G0 X137.478 Y100.141
G0 X144.919 Y100.072
G0 X145.332 Y100.547
;TYPE:WALL-INNER
G1 F1500 E49.73544
G1 F1200 X145.195 Y100.398 E49.74218
G1 X145.1 Y100.138 E49.75138
G1 X145.1 Y87.072 E50.18596
G1 X145.202 Y86.735 E50.19767
G1 X145.402 Y86.55 E50.20673
G1 X145.592 Y86.472 E50.21356
G1 X158.818 Y86.472 E50.65346
G1 X159.018 Y86.562 E50.66076
G1 X159.217 Y86.767 E50.67026
G1 X159.3 Y87.004 E50.67861
G1 X159.297 Y100.136 E51.11538
G1 X159.203 Y100.401 E51.12473
G1 X159.098 Y100.523 E51.13009
G1 X158.916 Y100.633 E51.13716
G1 X158.759 Y100.673 E51.14255
G1 X145.623 Y100.668 E51.57945
G1 X145.332 Y100.547 E51.58994
G0 F6000 X145.577 Y100.231
;TYPE:WALL-OUTER
G1 F1200 X145.5 Y100.09 E51.59528
G1 X145.5 Y87.072 E52.02826
G1 X145.562 Y86.926 E52.03354
G1 X145.658 Y86.872 E52.0372
G1 X158.742 Y86.872 E52.47238
G1 X158.898 Y86.989 E52.47886
G1 X158.896 Y100.116 E52.91547
G1 X158.833 Y100.223 E52.9196
G1 X158.728 Y100.271 E52.92344
G1 X145.674 Y100.271 E53.35761
G1 X145.577 Y100.231 E53.3611
G1 F1500 E46.8611
G0 F6000 X145.577 Y100.572
G0 X158.515 Y100.852
G0 X160.917 Y104.748
G0 X161.696 Y107.625
;TYPE:WALL-INNER
G1 F1500 E53.3611
